luts/warm_rich.cube
TITLE "warm_rich"
LUT_3D_SIZE 5
DOMAIN_MIN 0.0 0.0 0.0
DOMAIN_MAX 1.0 1.0 1.0
0.086784 0.014464 0.000000
0.311632 0.013696 0.000000
0.548000 0.016000 0.000000
0.774000 0.016000 0.000000
1.000000 0.016000 0.000000
0.096000 0.262000 0.000000
0.317392 0.261232 0.000000
0.543392 0.260848 0.000000
0.774000 0.262000 0.000000
1.000000 0.262000 0.000000
0.096000 0.508000 0.000000
0.322000 0.508000 0.000000
0.548000 0.508000 0.000000
0.774000 0.508000 0.000000
1.000000 0.508000 0.000000
0.096000 0.754000 0.000000
0.322000 0.754000 0.000000
0.548000 0.754000 0.000000
0.774000 0.754000 0.000000
1.000000 0.754000 0.000000
0.096000 1.000000 0.000000
0.322000 1.000000 0.000000
0.548000 1.000000 0.000000
0.774000 1.000000 0.000000
1.000000 1.000000 0.000000
0.096000 0.016000 0.230000
0.322000 0.016000 0.230000
0.548000 0.016000 0.230000
0.774000 0.016000 0.230000
1.000000 0.016000 0.230000
0.096000 0.262000 0.230000
0.315088 0.260848 0.231920
0.541088 0.260272 0.232880
0.774000 0.262000 0.230000
1.000000 0.262000 0.230000
0.096000 0.508000 0.230000
0.322000 0.508000 0.230000
0.544928 0.507488 0.231280
0.771696 0.507232 0.231920
1.000000 0.508000 0.230000
0.096000 0.754000 0.230000
0.322000 0.754000 0.230000
0.548000 0.754000 0.230000
0.774000 0.754000 0.230000
1.000000 0.754000 0.230000
0.096000 1.000000 0.230000
0.322000 1.000000 0.230000
0.548000 1.000000 0.230000
0.774000 1.000000 0.230000
1.000000 1.000000 0.230000
0.096000 0.016000 0.460000
0.322000 0.016000 0.460000
0.548000 0.016000 0.460000
0.774000 0.016000 0.460000
1.000000 0.016000 0.460000
0.096000 0.262000 0.460000
0.322000 0.262000 0.460000
0.548000 0.262000 0.460000
0.774000 0.262000 0.460000
1.000000 0.262000 0.460000
0.096000 0.508000 0.460000
0.322000 0.508000 0.460000
0.543392 0.507232 0.463840
0.770544 0.506848 0.465760
1.000000 0.508000 0.460000
0.096000 0.754000 0.460000
0.322000 0.754000 0.460000
0.548000 0.754000 0.460000
0.772464 0.753744 0.462560
1.000000 0.753616 0.463840
0.096000 1.000000 0.460000
0.322000 1.000000 0.460000
0.548000 1.000000 0.460000
0.774000 1.000000 0.460000
1.000000 1.000000 0.460000
0.096000 0.016000 0.690000
0.322000 0.016000 0.690000
0.548000 0.016000 0.690000
0.774000 0.016000 0.690000
1.000000 0.016000 0.690000
0.096000 0.262000 0.690000
0.322000 0.262000 0.690000
0.548000 0.262000 0.690000
0.774000 0.262000 0.690000
1.000000 0.262000 0.690000
0.096000 0.508000 0.690000
0.322000 0.508000 0.690000
0.548000 0.508000 0.690000
0.774000 0.508000 0.690000
1.000000 0.508000 0.690000
0.096000 0.754000 0.690000
0.322000 0.754000 0.690000
0.548000 0.754000 0.690000
0.771696 0.753616 0.695760
1.000000 0.753424 0.698640
0.096000 1.000000 0.690000
0.322000 1.000000 0.690000
0.548000 1.000000 0.690000
0.774000 1.000000 0.690000
1.000000 1.000000 0.693840
0.096000 0.016000 0.920000
0.322000 0.016000 0.920000
0.548000 0.016000 0.920000
0.774000 0.016000 0.920000
1.000000 0.016000 0.920000
0.096000 0.262000 0.920000
0.322000 0.262000 0.920000
0.548000 0.262000 0.920000
0.774000 0.262000 0.920000
1.000000 0.262000 0.920000
0.096000 0.508000 0.920000
0.322000 0.508000 0.920000
0.548000 0.508000 0.920000
0.774000 0.508000 0.920000
1.000000 0.508000 0.920000
0.096000 0.754000 0.920000
0.322000 0.754000 0.920000
0.548000 0.754000 0.920000
0.774000 0.754000 0.920000
1.000000 0.754000 0.920000
0.096000 1.000000 0.920000
0.322000 1.000000 0.920000
0.548000 1.000000 0.920000
0.774000 1.000000 0.920000
1.000000 1.000000 0.927680
