luts/warm_rich.cube
TITLE "warm_rich"
LUT_3D_SIZE 33
DOMAIN_MIN 0.0 0.0 0.0
DOMAIN_MAX 1.0 1.0 1.0
0.086784 0.014464 0.000000
0.112532 0.013984 0.000000
0.138460 0.013504 0.000000
0.164568 0.013024 0.000000
0.190856 0.012544 0.000000
0.218296 0.012256 0.000000
0.249588 0.012736 0.000000
0.280700 0.013216 0.000000
0.311632 0.013696 0.000000
0.342384 0.014176 0.000000
0.372956 0.014656 0.000000
0.403348 0.015136 0.000000
0.433560 0.015616 0.000000
0.463250 0.016000 0.000000
0.491500 0.016000 0.000000
0.519750 0.016000 0.000000
0.548000 0.016000 0.000000
0.576250 0.016000 0.000000
0.604500 0.016000 0.000000
0.632750 0.016000 0.000000
0.661000 0.016000 0.000000
0.689250 0.016000 0.000000
0.717500 0.016000 0.000000
0.745750 0.016000 0.000000
0.774000 0.016000 0.000000
0.802250 0.016000 0.000000
0.830500 0.016000 0.000000
0.858750 0.016000 0.000000
0.887000 0.016000 0.000000
0.915250 0.016000 0.000000
0.943500 0.016000 0.000000
0.971750 0.016000 0.000000
1.000000 0.016000 0.000000
0.088344 0.045514 0.000000
0.113462 0.044952 0.000000
0.138798 0.044390 0.000000
0.164351 0.043828 0.000000
0.190121 0.043266 0.000000
0.216109 0.042704 0.000000
0.243446 0.042367 0.000000
0.275263 0.042929 0.000000
0.306862 0.043491 0.000000
0.338244 0.044053 0.000000
0.369408 0.044615 0.000000
0.400355 0.045177 0.000000
0.431085 0.045739 0.000000
0.461597 0.046301 0.000000
0.491500 0.046750 0.000000
0.519750 0.046750 0.000000
0.548000 0.046750 0.000000
0.576250 0.046750 0.000000
0.604500 0.046750 0.000000
0.632750 0.046750 0.000000
0.661000 0.046750 0.000000
0.689250 0.046750 0.000000
0.717500 0.046750 0.000000
0.745750 0.046750 0.000000
0.774000 0.046750 0.000000
0.802250 0.046750 0.000000
0.830500 0.046750 0.000000
0.858750 0.046750 0.000000
0.887000 0.046750 0.000000
0.915250 0.046750 0.000000
0.943500 0.046750 0.000000
0.971750 0.046750 0.000000
1.000000 0.046750 0.000000
0.091104 0.076735 0.000000
0.115555 0.076097 0.000000
0.140260 0.075460 0.000000
0.165220 0.074823 0.000000
0.190436 0.074185 0.000000
0.215907 0.073548 0.000000
0.241632 0.072910 0.000000
0.268888 0.072527 0.000000
0.301192 0.073165 0.000000
0.333242 0.073803 0.000000
0.365036 0.074440 0.000000
0.396575 0.075078 0.000000
0.427860 0.075715 0.000000
0.458890 0.076353 0.000000
0.489664 0.076990 0.000000
0.519750 0.077500 0.000000
0.548000 0.077500 0.000000
0.576250 0.077500 0.000000
0.604500 0.077500 0.000000
0.632750 0.077500 0.000000
0.661000 0.077500 0.000000
0.689250 0.077500 0.000000
0.717500 0.077500 0.000000
0.745750 0.077500 0.000000
0.774000 0.077500 0.000000
0.802250 0.077500 0.000000
0.830500 0.077500 0.000000
0.858750 0.077500 0.000000
0.887000 0.077500 0.000000
0.915250 0.077500 0.000000
0.943500 0.077500 0.000000
0.971750 0.077500 0.000000
1.000000 0.077500 0.000000
0.095064 0.108109 0.000000
0.118810 0.107402 0.000000
0.142847 0.106695 0.000000
0.167178 0.105988 0.000000
0.191801 0.105281 0.000000
0.216716 0.104574 0.000000
0.241924 0.103867 0.000000
0.267425 0.103161 0.000000
0.294622 0.102736 0.000000
0.327377 0.103443 0.000000
0.359839 0.104150 0.000000
0.392008 0.104857 0.000000
0.423885 0.105564 0.000000
0.455469 0.106271 0.000000
0.486762 0.106978 0.000000
0.517761 0.107685 0.000000
0.548000 0.108250 0.000000
0.576250 0.108250 0.000000
0.604500 0.108250 0.000000
0.632750 0.108250 0.000000
0.661000 0.108250 0.000000
0.689250 0.108250 0.000000
0.717500 0.108250 0.000000
0.745750 0.108250 0.000000
0.774000 0.108250 0.000000
0.802250 0.108250 0.000000
0.830500 0.108250 0.000000
0.858750 0.108250 0.000000
0.887000 0.108250 0.000000
0.915250 0.108250 0.000000
0.943500 0.108250 0.000000
0.971750 0.108250 0.000000
1.000000 0.108250 0.000000
0.096000 0.139000 0.000000
0.123413 0.138874 0.000000
0.147640 0.138244 0.000000
0.172137 0.137614 0.000000
0.196904 0.136984 0.000000
0.221941 0.136354 0.000000
0.247248 0.135724 0.000000
0.272825 0.135094 0.000000
0.298672 0.134464 0.000000
0.326031 0.134086 0.000000
0.358304 0.134716 0.000000
0.390307 0.135346 0.000000
0.422040 0.135976 0.000000
0.453503 0.136606 0.000000
0.484696 0.137236 0.000000
0.515619 0.137866 0.000000
0.546272 0.138496 0.000000
0.576250 0.139000 0.000000
0.604500 0.139000 0.000000
0.632750 0.139000 0.000000
0.661000 0.139000 0.000000
0.689250 0.139000 0.000000
0.717500 0.139000 0.000000
0.745750 0.139000 0.000000
0.774000 0.139000 0.000000
0.802250 0.139000 0.000000
0.830500 0.139000 0.000000
0.858750 0.139000 0.000000
0.887000 0.139000 0.000000
0.915250 0.139000 0.000000
0.943500 0.139000 0.000000
0.971750 0.139000 0.000000
1.000000 0.139000 0.000000
0.096000 0.169750 0.000000
0.124250 0.169750 0.000000
0.151803 0.169645 0.000000
0.176704 0.169122 0.000000
0.201839 0.168599 0.000000
0.227206 0.168076 0.000000
0.252806 0.167553 0.000000
0.278637 0.167030 0.000000
0.304702 0.166507 0.000000
0.330999 0.165984 0.000000
0.358552 0.165670 0.000000
0.390149 0.166193 0.000000
0.421515 0.166716 0.000000
0.452648 0.167239 0.000000
0.483548 0.167762 0.000000
0.514216 0.168285 0.000000
0.544652 0.168808 0.000000
0.574855 0.169331 0.000000
0.604500 0.169750 0.000000
0.632750 0.169750 0.000000
0.661000 0.169750 0.000000
0.689250 0.169750 0.000000
0.717500 0.169750 0.000000
0.745750 0.169750 0.000000
0.774000 0.169750 0.000000
0.802250 0.169750 0.000000
0.830500 0.169750 0.000000
0.858750 0.169750 0.000000
0.887000 0.169750 0.000000
0.915250 0.169750 0.000000
0.943500 0.169750 0.000000
0.971750 0.169750 0.000000
1.000000 0.169750 0.000000
0.096000 0.200500 0.000000
0.124250 0.200500 0.000000
0.152500 0.200500 0.000000
0.180184 0.200415 0.000000
0.205724 0.199993 0.000000
0.231459 0.199571 0.000000
0.257388 0.199148 0.000000
0.283513 0.198725 0.000000
0.309832 0.198303 0.000000
0.336346 0.197881 0.000000
0.363056 0.197458 0.000000
0.390780 0.197205 0.000000
0.421740 0.197627 0.000000
0.452506 0.198049 0.000000
0.483076 0.198472 0.000000
0.513451 0.198895 0.000000
0.543632 0.199317 0.000000
0.573618 0.199740 0.000000
0.603408 0.200162 0.000000
0.632750 0.200500 0.000000
0.661000 0.200500 0.000000
0.689250 0.200500 0.000000
0.717500 0.200500 0.000000
0.745750 0.200500 0.000000
0.774000 0.200500 0.000000
0.802250 0.200500 0.000000
0.830500 0.200500 0.000000
0.858750 0.200500 0.000000
0.887000 0.200500 0.000000
0.915250 0.200500 0.000000
0.943500 0.200500 0.000000
0.971750 0.200500 0.000000
1.000000 0.200500 0.000000
0.096000 0.231250 0.000000
0.124250 0.231250 0.000000
0.152500 0.231250 0.000000
0.180750 0.231250 0.000000
0.208559 0.231184 0.000000
0.234699 0.230856 0.000000
0.260995 0.230528 0.000000
0.287450 0.230200 0.000000
0.314062 0.229872 0.000000
0.340832 0.229544 0.000000
0.367758 0.229216 0.000000
0.394843 0.228887 0.000000
0.422715 0.228691 0.000000
0.453076 0.229019 0.000000
0.483278 0.229347 0.000000
0.513324 0.229675 0.000000
0.543212 0.230003 0.000000
0.572943 0.230331 0.000000
0.602515 0.230659 0.000000
0.631931 0.230988 0.000000
0.661000 0.231250 0.000000
0.689250 0.231250 0.000000
0.717500 0.231250 0.000000
0.745750 0.231250 0.000000
0.774000 0.231250 0.000000
0.802250 0.231250 0.000000
0.830500 0.231250 0.000000
0.858750 0.231250 0.000000
0.887000 0.231250 0.000000
0.915250 0.231250 0.000000
0.943500 0.231250 0.000000
0.971750 0.231250 0.000000
1.000000 0.231250 0.000000
0.096000 0.262000 0.000000
0.124250 0.262000 0.000000
0.152500 0.262000 0.000000
0.180750 0.262000 0.000000
0.209000 0.262000 0.000000
0.236926 0.261952 0.000000
0.263628 0.261712 0.000000
0.290450 0.261472 0.000000
0.317392 0.261232 0.000000
0.344454 0.260992 0.000000
0.371636 0.260752 0.000000
0.398938 0.260512 0.000000
0.426360 0.260272 0.000000
0.454358 0.260128 0.000000
0.484156 0.260368 0.000000
0.513834 0.260608 0.000000
0.543392 0.260848 0.000000
0.572830 0.261088 0.000000
0.602148 0.261328 0.000000
0.631346 0.261568 0.000000
0.660424 0.261808 0.000000
0.689250 0.262000 0.000000
0.717500 0.262000 0.000000
0.745750 0.262000 0.000000
0.774000 0.262000 0.000000
0.802250 0.262000 0.000000
0.830500 0.262000 0.000000
0.858750 0.262000 0.000000
0.887000 0.262000 0.000000
0.915250 0.262000 0.000000
0.943500 0.262000 0.000000
0.971750 0.262000 0.000000
1.000000 0.262000 0.000000
0.096000 0.292750 0.000000
0.124250 0.292750 0.000000
0.152500 0.292750 0.000000
0.180750 0.292750 0.000000
0.209000 0.292750 0.000000
0.237250 0.292750 0.000000
0.265286 0.292718 0.000000
0.292513 0.292560 0.000000
0.319822 0.292402 0.000000
0.347214 0.292244 0.000000
0.374688 0.292086 0.000000
0.402245 0.291928 0.000000
0.429885 0.291770 0.000000
0.457607 0.291612 0.000000
0.485708 0.291517 0.000000
0.514981 0.291675 0.000000
0.544172 0.291833 0.000000
0.573280 0.291991 0.000000
0.602306 0.292149 0.000000
0.631248 0.292307 0.000000
0.660109 0.292465 0.000000
0.688887 0.292623 0.000000
0.717500 0.292750 0.000000
0.745750 0.292750 0.000000
0.774000 0.292750 0.000000
0.802250 0.292750 0.000000
0.830500 0.292750 0.000000
0.858750 0.292750 0.000000
0.887000 0.292750 0.000000
0.915250 0.292750 0.000000
0.943500 0.292750 0.000000
0.971750 0.292750 0.000000
1.000000 0.292750 0.000000
0.096000 0.323500 0.000000
0.124250 0.323500 0.000000
0.152500 0.323500 0.000000
0.180750 0.323500 0.000000
0.209000 0.323500 0.000000
0.237250 0.323500 0.000000
0.265500 0.323500 0.000000
0.293637 0.323483 0.000000
0.321352 0.323401 0.000000
0.349112 0.323319 0.000000
0.376916 0.323236 0.000000
0.404766 0.323153 0.000000
0.432660 0.323071 0.000000
0.460599 0.322989 0.000000
0.488584 0.322906 0.000000
0.516767 0.322856 0.000000
0.545552 0.322939 0.000000
0.574292 0.323022 0.000000
0.602988 0.323104 0.000000
0.631638 0.323186 0.000000
0.660244 0.323269 0.000000
0.688805 0.323352 0.000000
0.717320 0.323434 0.000000
0.745750 0.323500 0.000000
0.774000 0.323500 0.000000
0.802250 0.323500 0.000000
0.830500 0.323500 0.000000
0.858750 0.323500 0.000000
0.887000 0.323500 0.000000
0.915250 0.323500 0.000000
0.943500 0.323500 0.000000
0.971750 0.323500 0.000000
1.000000 0.323500 0.000000
0.096000 0.354250 0.000000
0.124250 0.354250 0.000000
0.152500 0.354250 0.000000
0.180750 0.354250 0.000000
0.209000 0.354250 0.000000
0.237250 0.354250 0.000000
0.265500 0.354250 0.000000
0.293750 0.354250 0.000000
0.321982 0.354247 0.000000
0.350147 0.354234 0.000000
0.378319 0.354221 0.000000
0.406498 0.354208 0.000000
0.434685 0.354195 0.000000
0.462879 0.354182 0.000000
0.491082 0.354169 0.000000
0.519291 0.354156 0.000000
0.547532 0.354148 0.000000
0.575867 0.354161 0.000000
0.604195 0.354174 0.000000
0.632516 0.354187 0.000000
0.660829 0.354200 0.000000
0.689134 0.354213 0.000000
0.717433 0.354226 0.000000
0.745723 0.354239 0.000000
0.774000 0.354250 0.000000
0.802250 0.354250 0.000000
0.830500 0.354250 0.000000
0.858750 0.354250 0.000000
0.887000 0.354250 0.000000
0.915250 0.354250 0.000000
0.943500 0.354250 0.000000
0.971750 0.354250 0.000000
1.000000 0.354250 0.000000
0.096000 0.385000 0.000000
0.124250 0.385000 0.000000
0.152500 0.385000 0.000000
0.180750 0.385000 0.000000
0.209000 0.385000 0.000000
0.237250 0.385000 0.000000
0.265500 0.385000 0.000000
0.293750 0.385000 0.000000
0.322000 0.385000 0.000000
0.350250 0.385000 0.000000
0.378500 0.385000 0.000000
0.406750 0.385000 0.000000
0.435000 0.385000 0.000000
0.463250 0.385000 0.000000
0.491500 0.385000 0.000000
0.519750 0.385000 0.000000
0.548000 0.385000 0.000000
0.576250 0.385000 0.000000
0.604500 0.385000 0.000000
0.632750 0.385000 0.000000
0.661000 0.385000 0.000000
0.689250 0.385000 0.000000
0.717500 0.385000 0.000000
0.745750 0.385000 0.000000
0.774000 0.385000 0.000000
0.802250 0.385000 0.000000
0.830500 0.385000 0.000000
0.858750 0.385000 0.000000
0.887000 0.385000 0.000000
0.915250 0.385000 0.000000
0.943500 0.385000 0.000000
0.971750 0.385000 0.000000
1.000000 0.385000 0.000000
0.096000 0.415750 0.000000
0.124250 0.415750 0.000000
0.152500 0.415750 0.000000
0.180750 0.415750 0.000000
0.209000 0.415750 0.000000
0.237250 0.415750 0.000000
0.265500 0.415750 0.000000
0.293750 0.415750 0.000000
0.322000 0.415750 0.000000
0.350250 0.415750 0.000000
0.378500 0.415750 0.000000
0.406750 0.415750 0.000000
0.435000 0.415750 0.000000
0.463250 0.415750 0.000000
0.491500 0.415750 0.000000
0.519750 0.415750 0.000000
0.548000 0.415750 0.000000
0.576250 0.415750 0.000000
0.604500 0.415750 0.000000
0.632750 0.415750 0.000000
0.661000 0.415750 0.000000
0.689250 0.415750 0.000000
0.717500 0.415750 0.000000
0.745750 0.415750 0.000000
0.774000 0.415750 0.000000
0.802250 0.415750 0.000000
0.830500 0.415750 0.000000
0.858750 0.415750 0.000000
0.887000 0.415750 0.000000
0.915250 0.415750 0.000000
0.943500 0.415750 0.000000
0.971750 0.415750 0.000000
1.000000 0.415750 0.000000
0.096000 0.446500 0.000000
0.124250 0.446500 0.000000
0.152500 0.446500 0.000000
0.180750 0.446500 0.000000
0.209000 0.446500 0.000000
0.237250 0.446500 0.000000
0.265500 0.446500 0.000000
0.293750 0.446500 0.000000
0.322000 0.446500 0.000000
0.350250 0.446500 0.000000
0.378500 0.446500 0.000000
0.406750 0.446500 0.000000
0.435000 0.446500 0.000000
0.463250 0.446500 0.000000
0.491500 0.446500 0.000000
0.519750 0.446500 0.000000
0.548000 0.446500 0.000000
0.576250 0.446500 0.000000
0.604500 0.446500 0.000000
0.632750 0.446500 0.000000
0.661000 0.446500 0.000000
0.689250 0.446500 0.000000
0.717500 0.446500 0.000000
0.745750 0.446500 0.000000
0.774000 0.446500 0.000000
0.802250 0.446500 0.000000
0.830500 0.446500 0.000000
0.858750 0.446500 0.000000
0.887000 0.446500 0.000000
0.915250 0.446500 0.000000
0.943500 0.446500 0.000000
0.971750 0.446500 0.000000
1.000000 0.446500 0.000000
0.096000 0.477250 0.000000
0.124250 0.477250 0.000000
0.152500 0.477250 0.000000
0.180750 0.477250 0.000000
0.209000 0.477250 0.000000
0.237250 0.477250 0.000000
0.265500 0.477250 0.000000
0.293750 0.477250 0.000000
0.322000 0.477250 0.000000
0.350250 0.477250 0.000000
0.378500 0.477250 0.000000
0.406750 0.477250 0.000000
0.435000 0.477250 0.000000
0.463250 0.477250 0.000000
0.491500 0.477250 0.000000
0.519750 0.477250 0.000000
0.548000 0.477250 0.000000
0.576250 0.477250 0.000000
0.604500 0.477250 0.000000
0.632750 0.477250 0.000000
0.661000 0.477250 0.000000
0.689250 0.477250 0.000000
0.717500 0.477250 0.000000
0.745750 0.477250 0.000000
0.774000 0.477250 0.000000
0.802250 0.477250 0.000000
0.830500 0.477250 0.000000
0.858750 0.477250 0.000000
0.887000 0.477250 0.000000
0.915250 0.477250 0.000000
0.943500 0.477250 0.000000
0.971750 0.477250 0.000000
1.000000 0.477250 0.000000
0.096000 0.508000 0.000000
0.124250 0.508000 0.000000
0.152500 0.508000 0.000000
0.180750 0.508000 0.000000
0.209000 0.508000 0.000000
0.237250 0.508000 0.000000
0.265500 0.508000 0.000000
0.293750 0.508000 0.000000
0.322000 0.508000 0.000000
0.350250 0.508000 0.000000
0.378500 0.508000 0.000000
0.406750 0.508000 0.000000
0.435000 0.508000 0.000000
0.463250 0.508000 0.000000
0.491500 0.508000 0.000000
0.519750 0.508000 0.000000
0.548000 0.508000 0.000000
0.576250 0.508000 0.000000
0.604500 0.508000 0.000000
0.632750 0.508000 0.000000
0.661000 0.508000 0.000000
0.689250 0.508000 0.000000
0.717500 0.508000 0.000000
0.745750 0.508000 0.000000
0.774000 0.508000 0.000000
0.802250 0.508000 0.000000
0.830500 0.508000 0.000000
0.858750 0.508000 0.000000
0.887000 0.508000 0.000000
0.915250 0.508000 0.000000
0.943500 0.508000 0.000000
0.971750 0.508000 0.000000
1.000000 0.508000 0.000000
0.096000 0.538750 0.000000
0.124250 0.538750 0.000000
0.152500 0.538750 0.000000
0.180750 0.538750 0.000000
0.209000 0.538750 0.000000
0.237250 0.538750 0.000000
0.265500 0.538750 0.000000
0.293750 0.538750 0.000000
0.322000 0.538750 0.000000
0.350250 0.538750 0.000000
0.378500 0.538750 0.000000
0.406750 0.538750 0.000000
0.435000 0.538750 0.000000
0.463250 0.538750 0.000000
0.491500 0.538750 0.000000
0.519750 0.538750 0.000000
0.548000 0.538750 0.000000
0.576250 0.538750 0.000000
0.604500 0.538750 0.000000
0.632750 0.538750 0.000000
0.661000 0.538750 0.000000
0.689250 0.538750 0.000000
0.717500 0.538750 0.000000
0.745750 0.538750 0.000000
0.774000 0.538750 0.000000
0.802250 0.538750 0.000000
0.830500 0.538750 0.000000
0.858750 0.538750 0.000000
0.887000 0.538750 0.000000
0.915250 0.538750 0.000000
0.943500 0.538750 0.000000
0.971750 0.538750 0.000000
1.000000 0.538750 0.000000
0.096000 0.569500 0.000000
0.124250 0.569500 0.000000
0.152500 0.569500 0.000000
0.180750 0.569500 0.000000
0.209000 0.569500 0.000000
0.237250 0.569500 0.000000
0.265500 0.569500 0.000000
0.293750 0.569500 0.000000
0.322000 0.569500 0.000000
0.350250 0.569500 0.000000
0.378500 0.569500 0.000000
0.406750 0.569500 0.000000
0.435000 0.569500 0.000000
0.463250 0.569500 0.000000
0.491500 0.569500 0.000000
0.519750 0.569500 0.000000
0.548000 0.569500 0.000000
0.576250 0.569500 0.000000
0.604500 0.569500 0.000000
0.632750 0.569500 0.000000
0.661000 0.569500 0.000000
0.689250 0.569500 0.000000
0.717500 0.569500 0.000000
0.745750 0.569500 0.000000
0.774000 0.569500 0.000000
0.802250 0.569500 0.000000
0.830500 0.569500 0.000000
0.858750 0.569500 0.000000
0.887000 0.569500 0.000000
0.915250 0.569500 0.000000
0.943500 0.569500 0.000000
0.971750 0.569500 0.000000
1.000000 0.569500 0.000000
0.096000 0.600250 0.000000
0.124250 0.600250 0.000000
0.152500 0.600250 0.000000
0.180750 0.600250 0.000000
0.209000 0.600250 0.000000
0.237250 0.600250 0.000000
0.265500 0.600250 0.000000
0.293750 0.600250 0.000000
0.322000 0.600250 0.000000
0.350250 0.600250 0.000000
0.378500 0.600250 0.000000
0.406750 0.600250 0.000000
0.435000 0.600250 0.000000
0.463250 0.600250 0.000000
0.491500 0.600250 0.000000
0.519750 0.600250 0.000000
0.548000 0.600250 0.000000
0.576250 0.600250 0.000000
0.604500 0.600250 0.000000
0.632750 0.600250 0.000000
0.661000 0.600250 0.000000
0.689250 0.600250 0.000000
0.717500 0.600250 0.000000
0.745750 0.600250 0.000000
0.774000 0.600250 0.000000
0.802250 0.600250 0.000000
0.830500 0.600250 0.000000
0.858750 0.600250 0.000000
0.887000 0.600250 0.000000
0.915250 0.600250 0.000000
0.943500 0.600250 0.000000
0.971750 0.600250 0.000000
1.000000 0.600250 0.000000
0.096000 0.631000 0.000000
0.124250 0.631000 0.000000
0.152500 0.631000 0.000000
0.180750 0.631000 0.000000
0.209000 0.631000 0.000000
0.237250 0.631000 0.000000
0.265500 0.631000 0.000000
0.293750 0.631000 0.000000
0.322000 0.631000 0.000000
0.350250 0.631000 0.000000
0.378500 0.631000 0.000000
0.406750 0.631000 0.000000
0.435000 0.631000 0.000000
0.463250 0.631000 0.000000
0.491500 0.631000 0.000000
0.519750 0.631000 0.000000
0.548000 0.631000 0.000000
0.576250 0.631000 0.000000
0.604500 0.631000 0.000000
0.632750 0.631000 0.000000
0.661000 0.631000 0.000000
0.689250 0.631000 0.000000
0.717500 0.631000 0.000000
0.745750 0.631000 0.000000
0.774000 0.631000 0.000000
0.802250 0.631000 0.000000
0.830500 0.631000 0.000000
0.858750 0.631000 0.000000
0.887000 0.631000 0.000000
0.915250 0.631000 0.000000
0.943500 0.631000 0.000000
0.971750 0.631000 0.000000
1.000000 0.631000 0.000000
0.096000 0.661750 0.000000
0.124250 0.661750 0.000000
0.152500 0.661750 0.000000
0.180750 0.661750 0.000000
0.209000 0.661750 0.000000
0.237250 0.661750 0.000000
0.265500 0.661750 0.000000
0.293750 0.661750 0.000000
0.322000 0.661750 0.000000
0.350250 0.661750 0.000000
0.378500 0.661750 0.000000
0.406750 0.661750 0.000000
0.435000 0.661750 0.000000
0.463250 0.661750 0.000000
0.491500 0.661750 0.000000
0.519750 0.661750 0.000000
0.548000 0.661750 0.000000
0.576250 0.661750 0.000000
0.604500 0.661750 0.000000
0.632750 0.661750 0.000000
0.661000 0.661750 0.000000
0.689250 0.661750 0.000000
0.717500 0.661750 0.000000
0.745750 0.661750 0.000000
0.774000 0.661750 0.000000
0.802250 0.661750 0.000000
0.830500 0.661750 0.000000
0.858750 0.661750 0.000000
0.887000 0.661750 0.000000
0.915250 0.661750 0.000000
0.943500 0.661750 0.000000
0.971750 0.661750 0.000000
1.000000 0.661750 0.000000
0.096000 0.692500 0.000000
0.124250 0.692500 0.000000
0.152500 0.692500 0.000000
0.180750 0.692500 0.000000
0.209000 0.692500 0.000000
0.237250 0.692500 0.000000
0.265500 0.692500 0.000000
0.293750 0.692500 0.000000
0.322000 0.692500 0.000000
0.350250 0.692500 0.000000
0.378500 0.692500 0.000000
0.406750 0.692500 0.000000
0.435000 0.692500 0.000000
0.463250 0.692500 0.000000
0.491500 0.692500 0.000000
0.519750 0.692500 0.000000
0.548000 0.692500 0.000000
0.576250 0.692500 0.000000
0.604500 0.692500 0.000000
0.632750 0.692500 0.000000
0.661000 0.692500 0.000000
0.689250 0.692500 0.000000
0.717500 0.692500 0.000000
0.745750 0.692500 0.000000
0.774000 0.692500 0.000000
0.802250 0.692500 0.000000
0.830500 0.692500 0.000000
0.858750 0.692500 0.000000
0.887000 0.692500 0.000000
0.915250 0.692500 0.000000
0.943500 0.692500 0.000000
0.971750 0.692500 0.000000
1.000000 0.692500 0.000000
0.096000 0.723250 0.000000
0.124250 0.723250 0.000000
0.152500 0.723250 0.000000
0.180750 0.723250 0.000000
0.209000 0.723250 0.000000
0.237250 0.723250 0.000000
0.265500 0.723250 0.000000
0.293750 0.723250 0.000000
0.322000 0.723250 0.000000
0.350250 0.723250 0.000000
0.378500 0.723250 0.000000
0.406750 0.723250 0.000000
0.435000 0.723250 0.000000
0.463250 0.723250 0.000000
0.491500 0.723250 0.000000
0.519750 0.723250 0.000000
0.548000 0.723250 0.000000
0.576250 0.723250 0.000000
0.604500 0.723250 0.000000
0.632750 0.723250 0.000000
0.661000 0.723250 0.000000
0.689250 0.723250 0.000000
0.717500 0.723250 0.000000
0.745750 0.723250 0.000000
0.774000 0.723250 0.000000
0.802250 0.723250 0.000000
0.830500 0.723250 0.000000
0.858750 0.723250 0.000000
0.887000 0.723250 0.000000
0.915250 0.723250 0.000000
0.943500 0.723250 0.000000
0.971750 0.723250 0.000000
1.000000 0.723250 0.000000
0.096000 0.754000 0.000000
0.124250 0.754000 0.000000
0.152500 0.754000 0.000000
0.180750 0.754000 0.000000
0.209000 0.754000 0.000000
0.237250 0.754000 0.000000
0.265500 0.754000 0.000000
0.293750 0.754000 0.000000
0.322000 0.754000 0.000000
0.350250 0.754000 0.000000
0.378500 0.754000 0.000000
0.406750 0.754000 0.000000
0.435000 0.754000 0.000000
0.463250 0.754000 0.000000
0.491500 0.754000 0.000000
0.519750 0.754000 0.000000
0.548000 0.754000 0.000000
0.576250 0.754000 0.000000
0.604500 0.754000 0.000000
0.632750 0.754000 0.000000
0.661000 0.754000 0.000000
0.689250 0.754000 0.000000
0.717500 0.754000 0.000000
0.745750 0.754000 0.000000
0.774000 0.754000 0.000000
0.802250 0.754000 0.000000
0.830500 0.754000 0.000000
0.858750 0.754000 0.000000
0.887000 0.754000 0.000000
0.915250 0.754000 0.000000
0.943500 0.754000 0.000000
0.971750 0.754000 0.000000
1.000000 0.754000 0.000000
0.096000 0.784750 0.000000
0.124250 0.784750 0.000000
0.152500 0.784750 0.000000
0.180750 0.784750 0.000000
0.209000 0.784750 0.000000
0.237250 0.784750 0.000000
0.265500 0.784750 0.000000
0.293750 0.784750 0.000000
0.322000 0.784750 0.000000
0.350250 0.784750 0.000000
0.378500 0.784750 0.000000
0.406750 0.784750 0.000000
0.435000 0.784750 0.000000
0.463250 0.784750 0.000000
0.491500 0.784750 0.000000
0.519750 0.784750 0.000000
0.548000 0.784750 0.000000
0.576250 0.784750 0.000000
0.604500 0.784750 0.000000
0.632750 0.784750 0.000000
0.661000 0.784750 0.000000
0.689250 0.784750 0.000000
0.717500 0.784750 0.000000
0.745750 0.784750 0.000000
0.774000 0.784750 0.000000
0.802250 0.784750 0.000000
0.830500 0.784750 0.000000
0.858750 0.784750 0.000000
0.887000 0.784750 0.000000
0.915250 0.784750 0.000000
0.943500 0.784750 0.000000
0.971750 0.784750 0.000000
1.000000 0.784750 0.000000
0.096000 0.815500 0.000000
0.124250 0.815500 0.000000
0.152500 0.815500 0.000000
0.180750 0.815500 0.000000
0.209000 0.815500 0.000000
0.237250 0.815500 0.000000
0.265500 0.815500 0.000000
0.293750 0.815500 0.000000
0.322000 0.815500 0.000000
0.350250 0.815500 0.000000
0.378500 0.815500 0.000000
0.406750 0.815500 0.000000
0.435000 0.815500 0.000000
0.463250 0.815500 0.000000
0.491500 0.815500 0.000000
0.519750 0.815500 0.000000
0.548000 0.815500 0.000000
0.576250 0.815500 0.000000
0.604500 0.815500 0.000000
0.632750 0.815500 0.000000
0.661000 0.815500 0.000000
0.689250 0.815500 0.000000
0.717500 0.815500 0.000000
0.745750 0.815500 0.000000
0.774000 0.815500 0.000000
0.802250 0.815500 0.000000
0.830500 0.815500 0.000000
