luts/warm_subtle.cube
TITLE "warm_subtle"
LUT_3D_SIZE 5
DOMAIN_MIN 0.0 0.0 0.0
DOMAIN_MAX 1.0 1.0 1.0
0.027120 0.004520 0.000000
0.269260 0.004280 0.000000
0.515000 0.005000 0.000000
0.757500 0.005000 0.000000
1.000000 0.005000 0.000000
0.030000 0.253750 0.000000
0.271060 0.253510 0.000000
0.513560 0.253390 0.000000
0.757500 0.253750 0.000000
1.000000 0.253750 0.000000
0.030000 0.502500 0.000000
0.272500 0.502500 0.000000
0.515000 0.502500 0.000000
0.757500 0.502500 0.000000
1.000000 0.502500 0.000000
0.030000 0.751250 0.000000
0.272500 0.751250 0.000000
0.515000 0.751250 0.000000
0.757500 0.751250 0.000000
1.000000 0.751250 0.000000
0.030000 1.000000 0.000000
0.272500 1.000000 0.000000
0.515000 1.000000 0.000000
0.757500 1.000000 0.000000
1.000000 1.000000 0.000000
0.030000 0.005000 0.243750
0.272500 0.005000 0.243750
0.515000 0.005000 0.243750
0.757500 0.005000 0.243750
1.000000 0.005000 0.243750
0.030000 0.253750 0.243750
0.270340 0.253390 0.244350
0.512840 0.253210 0.244650
0.757500 0.253750 0.243750
1.000000 0.253750 0.243750
0.030000 0.502500 0.243750
0.272500 0.502500 0.243750
0.514040 0.502340 0.244150
0.756780 0.502260 0.244350
1.000000 0.502500 0.243750
0.030000 0.751250 0.243750
0.272500 0.751250 0.243750
0.515000 0.751250 0.243750
0.757500 0.751250 0.243750
1.000000 0.751250 0.243750
0.030000 1.000000 0.243750
0.272500 1.000000 0.243750
0.515000 1.000000 0.243750
0.757500 1.000000 0.243750
1.000000 1.000000 0.243750
0.030000 0.005000 0.487500
0.272500 0.005000 0.487500
0.515000 0.005000 0.487500
0.757500 0.005000 0.487500
1.000000 0.005000 0.487500
0.030000 0.253750 0.487500
0.272500 0.253750 0.487500
0.515000 0.253750 0.487500
0.757500 0.253750 0.487500
1.000000 0.253750 0.487500
0.030000 0.502500 0.487500
0.272500 0.502500 0.487500
0.513560 0.502260 0.488700
0.756420 0.502140 0.489300
1.000000 0.502500 0.487500
0.030000 0.751250 0.487500
0.272500 0.751250 0.487500
0.515000 0.751250 0.487500
0.757020 0.751170 0.488300
1.000000 0.751130 0.488700
0.030000 1.000000 0.487500
0.272500 1.000000 0.487500
0.515000 1.000000 0.487500
0.757500 1.000000 0.487500
1.000000 1.000000 0.487500
0.030000 0.005000 0.731250
0.272500 0.005000 0.731250
0.515000 0.005000 0.731250
0.757500 0.005000 0.731250
1.000000 0.005000 0.731250
0.030000 0.253750 0.731250
0.272500 0.253750 0.731250
0.515000 0.253750 0.731250
0.757500 0.253750 0.731250
1.000000 0.253750 0.731250
0.030000 0.502500 0.731250
0.272500 0.502500 0.731250
0.515000 0.502500 0.731250
0.757500 0.502500 0.731250
1.000000 0.502500 0.731250
0.030000 0.751250 0.731250
0.272500 0.751250 0.731250
0.515000 0.751250 0.731250
0.756780 0.751130 0.733050
1.000000 0.751070 0.733950
0.030000 1.000000 0.731250
0.272500 1.000000 0.731250
0.515000 1.000000 0.731250
0.757500 1.000000 0.731250
1.000000 1.000000 0.732450
0.030000 0.005000 0.975000
0.272500 0.005000 0.975000
0.515000 0.005000 0.975000
0.757500 0.005000 0.975000
1.000000 0.005000 0.975000
0.030000 0.253750 0.975000
0.272500 0.253750 0.975000
0.515000 0.253750 0.975000
0.757500 0.253750 0.975000
1.000000 0.253750 0.975000
0.030000 0.502500 0.975000
0.272500 0.502500 0.975000
0.515000 0.502500 0.975000
0.757500 0.502500 0.975000
1.000000 0.502500 0.975000
0.030000 0.751250 0.975000
0.272500 0.751250 0.975000
0.515000 0.751250 0.975000
0.757500 0.751250 0.975000
1.000000 0.751250 0.975000
0.030000 1.000000 0.975000
0.272500 1.000000 0.975000
0.515000 1.000000 0.975000
0.757500 1.000000 0.975000
1.000000 1.000000 0.977400
