luts/warm_standard.cube
TITLE "warm_standard"
LUT_3D_SIZE 5
DOMAIN_MIN 0.0 0.0 0.0
DOMAIN_MAX 1.0 1.0 1.0
0.054240 0.009040 0.000000
0.288520 0.008560 0.000000
0.530000 0.010000 0.000000
0.765000 0.010000 0.000000
1.000000 0.010000 0.000000
0.060000 0.257500 0.000000
0.292120 0.257020 0.000000
0.527120 0.256780 0.000000
0.765000 0.257500 0.000000
1.000000 0.257500 0.000000
0.060000 0.505000 0.000000
0.295000 0.505000 0.000000
0.530000 0.505000 0.000000
0.765000 0.505000 0.000000
1.000000 0.505000 0.000000
0.060000 0.752500 0.000000
0.295000 0.752500 0.000000
0.530000 0.752500 0.000000
0.765000 0.752500 0.000000
1.000000 0.752500 0.000000
0.060000 1.000000 0.000000
0.295000 1.000000 0.000000
0.530000 1.000000 0.000000
0.765000 1.000000 0.000000
1.000000 1.000000 0.000000
0.060000 0.010000 0.237500
0.295000 0.010000 0.237500
0.530000 0.010000 0.237500
0.765000 0.010000 0.237500
1.000000 0.010000 0.237500
0.060000 0.257500 0.237500
0.290680 0.256780 0.238700
0.525680 0.256420 0.239300
0.765000 0.257500 0.237500
1.000000 0.257500 0.237500
0.060000 0.505000 0.237500
0.295000 0.505000 0.237500
0.528080 0.504680 0.238300
0.763560 0.504520 0.238700
1.000000 0.505000 0.237500
0.060000 0.752500 0.237500
0.295000 0.752500 0.237500
0.530000 0.752500 0.237500
0.765000 0.752500 0.237500
1.000000 0.752500 0.237500
0.060000 1.000000 0.237500
0.295000 1.000000 0.237500
0.530000 1.000000 0.237500
0.765000 1.000000 0.237500
1.000000 1.000000 0.237500
0.060000 0.010000 0.475000
0.295000 0.010000 0.475000
0.530000 0.010000 0.475000
0.765000 0.010000 0.475000
1.000000 0.010000 0.475000
0.060000 0.257500 0.475000
0.295000 0.257500 0.475000
0.530000 0.257500 0.475000
0.765000 0.257500 0.475000
1.000000 0.257500 0.475000
0.060000 0.505000 0.475000
0.295000 0.505000 0.475000
0.527120 0.504520 0.477400
0.762840 0.504280 0.478600
1.000000 0.505000 0.475000
0.060000 0.752500 0.475000
0.295000 0.752500 0.475000
0.530000 0.752500 0.475000
0.764040 0.752340 0.476600
1.000000 0.752260 0.477400
0.060000 1.000000 0.475000
0.295000 1.000000 0.475000
0.530000 1.000000 0.475000
0.765000 1.000000 0.475000
1.000000 1.000000 0.475000
0.060000 0.010000 0.712500
0.295000 0.010000 0.712500
0.530000 0.010000 0.712500
0.765000 0.010000 0.712500
1.000000 0.010000 0.712500
0.060000 0.257500 0.712500
0.295000 0.257500 0.712500
0.530000 0.257500 0.712500
0.765000 0.257500 0.712500
1.000000 0.257500 0.712500
0.060000 0.505000 0.712500
0.295000 0.505000 0.712500
0.530000 0.505000 0.712500
0.765000 0.505000 0.712500
1.000000 0.505000 0.712500
0.060000 0.752500 0.712500
0.295000 0.752500 0.712500
0.530000 0.752500 0.712500
0.763560 0.752260 0.716100
1.000000 0.752140 0.717900
0.060000 1.000000 0.712500
0.295000 1.000000 0.712500
0.530000 1.000000 0.712500
0.765000 1.000000 0.712500
1.000000 1.000000 0.714900
0.060000 0.010000 0.950000
0.295000 0.010000 0.950000
0.530000 0.010000 0.950000
0.765000 0.010000 0.950000
1.000000 0.010000 0.950000
0.060000 0.257500 0.950000
0.295000 0.257500 0.950000
0.530000 0.257500 0.950000
0.765000 0.257500 0.950000
1.000000 0.257500 0.950000
0.060000 0.505000 0.950000
0.295000 0.505000 0.950000
0.530000 0.505000 0.950000
0.765000 0.505000 0.950000
1.000000 0.505000 0.950000
0.060000 0.752500 0.950000
0.295000 0.752500 0.950000
0.530000 0.752500 0.950000
0.765000 0.752500 0.950000
1.000000 0.752500 0.950000
0.060000 1.000000 0.950000
0.295000 1.000000 0.950000
0.530000 1.000000 0.950000
0.765000 1.000000 0.950000
1.000000 1.000000 0.954800
