luts/warm_subtle.cube
TITLE "warm_subtle"
LUT_3D_SIZE 33
DOMAIN_MIN 0.0 0.0 0.0
DOMAIN_MAX 1.0 1.0 1.0
0.027120 0.004520 0.000000
0.056651 0.004370 0.000000
0.086237 0.004220 0.000000
0.115881 0.004070 0.000000
0.145580 0.003920 0.000000
0.175639 0.003830 0.000000
0.206902 0.003980 0.000000
0.238109 0.004130 0.000000
0.269260 0.004280 0.000000
0.300354 0.004430 0.000000
0.331392 0.004580 0.000000
0.362374 0.004730 0.000000
0.393300 0.004880 0.000000
0.424063 0.005000 0.000000
0.454375 0.005000 0.000000
0.484687 0.005000 0.000000
0.515000 0.005000 0.000000
0.545312 0.005000 0.000000
0.575625 0.005000 0.000000
0.605938 0.005000 0.000000
0.636250 0.005000 0.000000
0.666562 0.005000 0.000000
0.696875 0.005000 0.000000
0.727187 0.005000 0.000000
0.757500 0.005000 0.000000
0.787813 0.005000 0.000000
0.818125 0.005000 0.000000
0.848437 0.005000 0.000000
0.878750 0.005000 0.000000
0.909062 0.005000 0.000000
0.939375 0.005000 0.000000
0.969688 0.005000 0.000000
1.000000 0.005000 0.000000
0.027608 0.035707 0.000000
0.056941 0.035532 0.000000
0.086343 0.035356 0.000000
0.115813 0.035181 0.000000
0.145350 0.035005 0.000000
0.174956 0.034830 0.000000
0.204983 0.034724 0.000000
0.236410 0.034900 0.000000
0.267769 0.035075 0.000000
0.299061 0.035251 0.000000
0.330284 0.035427 0.000000
0.361439 0.035602 0.000000
0.392527 0.035778 0.000000
0.423546 0.035953 0.000000
0.454375 0.036094 0.000000
0.484687 0.036094 0.000000
0.515000 0.036094 0.000000
0.545312 0.036094 0.000000
0.575625 0.036094 0.000000
0.605938 0.036094 0.000000
0.636250 0.036094 0.000000
0.666562 0.036094 0.000000
0.696875 0.036094 0.000000
0.727187 0.036094 0.000000
0.757500 0.036094 0.000000
0.787813 0.036094 0.000000
0.818125 0.036094 0.000000
0.848437 0.036094 0.000000
0.878750 0.036094 0.000000
0.909062 0.036094 0.000000
0.939375 0.036094 0.000000
0.969688 0.036094 0.000000
1.000000 0.036094 0.000000
0.028470 0.066948 0.000000
0.057595 0.066749 0.000000
0.086800 0.066550 0.000000
0.116085 0.066351 0.000000
0.145449 0.066152 0.000000
0.174893 0.065952 0.000000
0.204416 0.065753 0.000000
0.234418 0.065634 0.000000
0.265997 0.065833 0.000000
0.297497 0.066032 0.000000
0.328917 0.066231 0.000000
0.360258 0.066430 0.000000
0.391519 0.066630 0.000000
0.422700 0.066829 0.000000
0.453801 0.067028 0.000000
0.484687 0.067187 0.000000
0.515000 0.067187 0.000000
0.545312 0.067187 0.000000
0.575625 0.067187 0.000000
0.605938 0.067187 0.000000
0.636250 0.067187 0.000000
0.666562 0.067187 0.000000
0.696875 0.067187 0.000000
0.727187 0.067187 0.000000
0.757500 0.067187 0.000000
0.787813 0.067187 0.000000
0.818125 0.067187 0.000000
0.848437 0.067187 0.000000
0.878750 0.067187 0.000000
0.909062 0.067187 0.000000
0.939375 0.067187 0.000000
0.969688 0.067187 0.000000
1.000000 0.067187 0.000000
0.029707 0.098237 0.000000
0.058612 0.098016 0.000000
0.087609 0.097795 0.000000
0.116696 0.097574 0.000000
0.145875 0.097353 0.000000
0.175146 0.097133 0.000000
0.204508 0.096912 0.000000
0.233961 0.096691 0.000000
0.263944 0.096558 0.000000
0.295665 0.096779 0.000000
0.327293 0.097000 0.000000
0.358831 0.097221 0.000000
0.390277 0.097442 0.000000
0.421631 0.097663 0.000000
0.452894 0.097884 0.000000
0.484066 0.098105 0.000000
0.515000 0.098281 0.000000
0.545312 0.098281 0.000000
0.575625 0.098281 0.000000
0.605938 0.098281 0.000000
0.636250 0.098281 0.000000
0.666562 0.098281 0.000000
0.696875 0.098281 0.000000
0.727187 0.098281 0.000000
0.757500 0.098281 0.000000
0.787813 0.098281 0.000000
0.818125 0.098281 0.000000
0.848437 0.098281 0.000000
0.878750 0.098281 0.000000
0.909062 0.098281 0.000000
0.939375 0.098281 0.000000
0.969688 0.098281 0.000000
1.000000 0.098281 0.000000
0.030000 0.129375 0.000000
0.060051 0.129336 0.000000
0.089106 0.129139 0.000000
0.118246 0.128942 0.000000
0.147470 0.128745 0.000000
0.176778 0.128548 0.000000
0.206171 0.128351 0.000000
0.235648 0.128154 0.000000
0.265210 0.127958 0.000000
0.295244 0.127839 0.000000
0.326814 0.128036 0.000000
0.358299 0.128233 0.000000
0.389700 0.128430 0.000000
0.421017 0.128627 0.000000
0.452249 0.128824 0.000000
0.483397 0.129021 0.000000
0.514460 0.129218 0.000000
0.545312 0.129375 0.000000
0.575625 0.129375 0.000000
0.605938 0.129375 0.000000
0.636250 0.129375 0.000000
0.666562 0.129375 0.000000
0.696875 0.129375 0.000000
0.727187 0.129375 0.000000
0.757500 0.129375 0.000000
0.787813 0.129375 0.000000
0.818125 0.129375 0.000000
0.848437 0.129375 0.000000
0.878750 0.129375 0.000000
0.909062 0.129375 0.000000
0.939375 0.129375 0.000000
0.969688 0.129375 0.000000
1.000000 0.129375 0.000000
0.030000 0.160469 0.000000
0.060312 0.160469 0.000000
0.090407 0.160436 0.000000
0.119673 0.160273 0.000000
0.149012 0.160109 0.000000
0.178424 0.159946 0.000000
0.207908 0.159782 0.000000
0.237465 0.159619 0.000000
0.267094 0.159455 0.000000
0.296797 0.159292 0.000000
0.326891 0.159194 0.000000
0.358250 0.159357 0.000000
0.389536 0.159521 0.000000
0.420749 0.159684 0.000000
0.451890 0.159848 0.000000
0.482958 0.160011 0.000000
0.513954 0.160174 0.000000
0.544877 0.160338 0.000000
0.575625 0.160469 0.000000
0.605938 0.160469 0.000000
0.636250 0.160469 0.000000
0.666562 0.160469 0.000000
0.696875 0.160469 0.000000
0.727187 0.160469 0.000000
0.757500 0.160469 0.000000
0.787813 0.160469 0.000000
0.818125 0.160469 0.000000
0.848437 0.160469 0.000000
0.878750 0.160469 0.000000
0.909062 0.160469 0.000000
0.939375 0.160469 0.000000
0.969688 0.160469 0.000000
1.000000 0.160469 0.000000
0.030000 0.191562 0.000000
0.060312 0.191562 0.000000
0.090625 0.191562 0.000000
0.120761 0.191536 0.000000
0.150226 0.191404 0.000000
0.179753 0.191272 0.000000
0.209340 0.191140 0.000000
0.238988 0.191008 0.000000
0.268697 0.190876 0.000000
0.298468 0.190744 0.000000
0.328299 0.190612 0.000000
0.358447 0.190533 0.000000
0.389606 0.190665 0.000000
0.420705 0.190797 0.000000
0.451742 0.190929 0.000000
0.482719 0.191061 0.000000
0.513635 0.191193 0.000000
0.544490 0.191325 0.000000
0.575284 0.191457 0.000000
0.605938 0.191562 0.000000
0.636250 0.191562 0.000000
0.666562 0.191562 0.000000
0.696875 0.191562 0.000000
0.727187 0.191562 0.000000
0.757500 0.191562 0.000000
0.787813 0.191562 0.000000
0.818125 0.191562 0.000000
0.848437 0.191562 0.000000
0.878750 0.191562 0.000000
0.909062 0.191562 0.000000
0.939375 0.191562 0.000000
0.969688 0.191562 0.000000
1.000000 0.191562 0.000000
0.030000 0.222656 0.000000
0.060312 0.222656 0.000000
0.090625 0.222656 0.000000
0.120938 0.222656 0.000000
0.151112 0.222636 0.000000
0.180765 0.222533 0.000000
0.210467 0.222431 0.000000
0.240219 0.222328 0.000000
0.270019 0.222226 0.000000
0.299869 0.222123 0.000000
0.329768 0.222021 0.000000
0.359717 0.221918 0.000000
0.389911 0.221856 0.000000
0.420883 0.221959 0.000000
0.451806 0.222062 0.000000
0.482679 0.222164 0.000000
0.513504 0.222267 0.000000
0.544279 0.222369 0.000000
0.575005 0.222472 0.000000
0.605682 0.222574 0.000000
0.636250 0.222656 0.000000
0.666562 0.222656 0.000000
0.696875 0.222656 0.000000
0.727187 0.222656 0.000000
0.757500 0.222656 0.000000
0.787813 0.222656 0.000000
0.818125 0.222656 0.000000
0.848437 0.222656 0.000000
0.878750 0.222656 0.000000
0.909062 0.222656 0.000000
0.939375 0.222656 0.000000
0.969688 0.222656 0.000000
1.000000 0.222656 0.000000
0.030000 0.253750 0.000000
0.060312 0.253750 0.000000
0.090625 0.253750 0.000000
0.120938 0.253750 0.000000
0.151250 0.253750 0.000000
0.181461 0.253735 0.000000
0.211290 0.253660 0.000000
0.241156 0.253585 0.000000
0.271060 0.253510 0.000000
0.301001 0.253435 0.000000
0.330980 0.253360 0.000000
0.360996 0.253285 0.000000
0.391050 0.253210 0.000000
0.421284 0.253165 0.000000
0.452080 0.253240 0.000000
0.482839 0.253315 0.000000
0.513560 0.253390 0.000000
0.544244 0.253465 0.000000
0.574890 0.253540 0.000000
0.605499 0.253615 0.000000
0.636070 0.253690 0.000000
0.666562 0.253750 0.000000
0.696875 0.253750 0.000000
0.727187 0.253750 0.000000
0.757500 0.253750 0.000000
0.787813 0.253750 0.000000
0.818125 0.253750 0.000000
0.848437 0.253750 0.000000
0.878750 0.253750 0.000000
0.909062 0.253750 0.000000
0.939375 0.253750 0.000000
0.969688 0.253750 0.000000
1.000000 0.253750 0.000000
0.030000 0.284844 0.000000
0.060312 0.284844 0.000000
0.090625 0.284844 0.000000
0.120938 0.284844 0.000000
0.151250 0.284844 0.000000
0.181562 0.284844 0.000000
0.211808 0.284834 0.000000
0.241801 0.284784 0.000000
0.271819 0.284735 0.000000
0.301864 0.284686 0.000000
0.331934 0.284636 0.000000
0.362030 0.284587 0.000000
0.392152 0.284537 0.000000
0.422299 0.284488 0.000000
0.452565 0.284458 0.000000
0.483197 0.284508 0.000000
0.513804 0.284557 0.000000
0.544384 0.284607 0.000000
0.574939 0.284656 0.000000
0.605468 0.284705 0.000000
0.635972 0.284755 0.000000
0.666449 0.284804 0.000000
0.696875 0.284844 0.000000
0.727187 0.284844 0.000000
0.757500 0.284844 0.000000
0.787813 0.284844 0.000000
0.818125 0.284844 0.000000
0.848437 0.284844 0.000000
0.878750 0.284844 0.000000
0.909062 0.284844 0.000000
0.939375 0.284844 0.000000
0.969688 0.284844 0.000000
1.000000 0.284844 0.000000
0.030000 0.315937 0.000000
0.060312 0.315937 0.000000
0.090625 0.315937 0.000000
0.120938 0.315937 0.000000
0.151250 0.315937 0.000000
0.181562 0.315937 0.000000
0.211875 0.315937 0.000000
0.242152 0.315932 0.000000
0.272297 0.315907 0.000000
0.302457 0.315881 0.000000
0.332630 0.315855 0.000000
0.362817 0.315829 0.000000
0.393019 0.315803 0.000000
0.423234 0.315778 0.000000
0.453464 0.315752 0.000000
0.483755 0.315736 0.000000
0.514235 0.315762 0.000000
0.544701 0.315788 0.000000
0.575152 0.315814 0.000000
0.605590 0.315840 0.000000
0.636014 0.315865 0.000000
0.666423 0.315891 0.000000
0.696819 0.315917 0.000000
0.727187 0.315937 0.000000
0.757500 0.315937 0.000000
0.787813 0.315937 0.000000
0.818125 0.315937 0.000000
0.848437 0.315937 0.000000
0.878750 0.315937 0.000000
0.909062 0.315937 0.000000
0.939375 0.315937 0.000000
0.969688 0.315937 0.000000
1.000000 0.315937 0.000000
0.030000 0.347031 0.000000
0.060312 0.347031 0.000000
0.090625 0.347031 0.000000
0.120938 0.347031 0.000000
0.151250 0.347031 0.000000
0.181562 0.347031 0.000000
0.211875 0.347031 0.000000
0.242188 0.347031 0.000000
0.272494 0.347030 0.000000
0.302780 0.347026 0.000000
0.333068 0.347022 0.000000
0.363359 0.347018 0.000000
0.393652 0.347014 0.000000
0.423947 0.347010 0.000000
0.454244 0.347006 0.000000
0.484544 0.347002 0.000000
0.514854 0.346999 0.000000
0.545193 0.347003 0.000000
0.575530 0.347007 0.000000
0.605864 0.347012 0.000000
0.636197 0.347016 0.000000
0.666526 0.347020 0.000000
0.696854 0.347024 0.000000
0.727179 0.347028 0.000000
0.757500 0.347031 0.000000
0.787813 0.347031 0.000000
0.818125 0.347031 0.000000
0.848437 0.347031 0.000000
0.878750 0.347031 0.000000
0.909062 0.347031 0.000000
0.939375 0.347031 0.000000
0.969688 0.347031 0.000000
1.000000 0.347031 0.000000
0.030000 0.378125 0.000000
0.060312 0.378125 0.000000
0.090625 0.378125 0.000000
0.120938 0.378125 0.000000
0.151250 0.378125 0.000000
0.181562 0.378125 0.000000
0.211875 0.378125 0.000000
0.242188 0.378125 0.000000
0.272500 0.378125 0.000000
0.302812 0.378125 0.000000
0.333125 0.378125 0.000000
0.363438 0.378125 0.000000
0.393750 0.378125 0.000000
0.424063 0.378125 0.000000
0.454375 0.378125 0.000000
0.484687 0.378125 0.000000
0.515000 0.378125 0.000000
0.545312 0.378125 0.000000
0.575625 0.378125 0.000000
0.605938 0.378125 0.000000
0.636250 0.378125 0.000000
0.666562 0.378125 0.000000
0.696875 0.378125 0.000000
0.727187 0.378125 0.000000
0.757500 0.378125 0.000000
0.787813 0.378125 0.000000
0.818125 0.378125 0.000000
0.848437 0.378125 0.000000
0.878750 0.378125 0.000000
0.909062 0.378125 0.000000
0.939375 0.378125 0.000000
0.969688 0.378125 0.000000
1.000000 0.378125 0.000000
0.030000 0.409219 0.000000
0.060312 0.409219 0.000000
0.090625 0.409219 0.000000
0.120938 0.409219 0.000000
0.151250 0.409219 0.000000
0.181562 0.409219 0.000000
0.211875 0.409219 0.000000
0.242188 0.409219 0.000000
0.272500 0.409219 0.000000
0.302812 0.409219 0.000000
0.333125 0.409219 0.000000
0.363438 0.409219 0.000000
0.393750 0.409219 0.000000
0.424063 0.409219 0.000000
0.454375 0.409219 0.000000
0.484687 0.409219 0.000000
0.515000 0.409219 0.000000
0.545312 0.409219 0.000000
0.575625 0.409219 0.000000
0.605938 0.409219 0.000000
0.636250 0.409219 0.000000
0.666562 0.409219 0.000000
0.696875 0.409219 0.000000
0.727187 0.409219 0.000000
0.757500 0.409219 0.000000
0.787813 0.409219 0.000000
0.818125 0.409219 0.000000
0.848437 0.409219 0.000000
0.878750 0.409219 0.000000
0.909062 0.409219 0.000000
0.939375 0.409219 0.000000
0.969688 0.409219 0.000000
1.000000 0.409219 0.000000
0.030000 0.440312 0.000000
0.060312 0.440312 0.000000
0.090625 0.440312 0.000000
0.120938 0.440312 0.000000
0.151250 0.440312 0.000000
0.181562 0.440312 0.000000
0.211875 0.440312 0.000000
0.242188 0.440312 0.000000
0.272500 0.440312 0.000000
0.302812 0.440312 0.000000
0.333125 0.440312 0.000000
0.363438 0.440312 0.000000
0.393750 0.440312 0.000000
0.424063 0.440312 0.000000
0.454375 0.440312 0.000000
0.484687 0.440312 0.000000
0.515000 0.440312 0.000000
0.545312 0.440312 0.000000
0.575625 0.440312 0.000000
0.605938 0.440312 0.000000
0.636250 0.440312 0.000000
0.666562 0.440312 0.000000
0.696875 0.440312 0.000000
0.727187 0.440312 0.000000
0.757500 0.440312 0.000000
0.787813 0.440312 0.000000
0.818125 0.440312 0.000000
0.848437 0.440312 0.000000
0.878750 0.440312 0.000000
0.909062 0.440312 0.000000
0.939375 0.440312 0.000000
0.969688 0.440312 0.000000
1.000000 0.440312 0.000000
0.030000 0.471406 0.000000
0.060312 0.471406 0.000000
0.090625 0.471406 0.000000
0.120938 0.471406 0.000000
0.151250 0.471406 0.000000
0.181562 0.471406 0.000000
0.211875 0.471406 0.000000
0.242188 0.471406 0.000000
0.272500 0.471406 0.000000
0.302812 0.471406 0.000000
0.333125 0.471406 0.000000
0.363438 0.471406 0.000000
0.393750 0.471406 0.000000
0.424063 0.471406 0.000000
0.454375 0.471406 0.000000
0.484687 0.471406 0.000000
0.515000 0.471406 0.000000
0.545312 0.471406 0.000000
0.575625 0.471406 0.000000
0.605938 0.471406 0.000000
0.636250 0.471406 0.000000
0.666562 0.471406 0.000000
0.696875 0.471406 0.000000
0.727187 0.471406 0.000000
0.757500 0.471406 0.000000
0.787813 0.471406 0.000000
0.818125 0.471406 0.000000
0.848437 0.471406 0.000000
0.878750 0.471406 0.000000
0.909062 0.471406 0.000000
0.939375 0.471406 0.000000
0.969688 0.471406 0.000000
1.000000 0.471406 0.000000
0.030000 0.502500 0.000000
0.060312 0.502500 0.000000
0.090625 0.502500 0.000000
0.120938 0.502500 0.000000
0.151250 0.502500 0.000000
0.181562 0.502500 0.000000
0.211875 0.502500 0.000000
0.242188 0.502500 0.000000
0.272500 0.502500 0.000000
0.302812 0.502500 0.000000
0.333125 0.502500 0.000000
0.363438 0.502500 0.000000
0.393750 0.502500 0.000000
0.424063 0.502500 0.000000
0.454375 0.502500 0.000000
0.484687 0.502500 0.000000
0.515000 0.502500 0.000000
0.545312 0.502500 0.000000
0.575625 0.502500 0.000000
0.605938 0.502500 0.000000
0.636250 0.502500 0.000000
0.666562 0.502500 0.000000
0.696875 0.502500 0.000000
0.727187 0.502500 0.000000
0.757500 0.502500 0.000000
0.787813 0.502500 0.000000
0.818125 0.502500 0.000000
0.848437 0.502500 0.000000
0.878750 0.502500 0.000000
0.909062 0.502500 0.000000
0.939375 0.502500 0.000000
0.969688 0.502500 0.000000
1.000000 0.502500 0.000000
0.030000 0.533594 0.000000
0.060312 0.533594 0.000000
0.090625 0.533594 0.000000
0.120938 0.533594 0.000000
0.151250 0.533594 0.000000
0.181562 0.533594 0.000000
0.211875 0.533594 0.000000
0.242188 0.533594 0.000000
0.272500 0.533594 0.000000
0.302812 0.533594 0.000000
0.333125 0.533594 0.000000
0.363438 0.533594 0.000000
0.393750 0.533594 0.000000
0.424063 0.533594 0.000000
0.454375 0.533594 0.000000
0.484687 0.533594 0.000000
0.515000 0.533594 0.000000
0.545312 0.533594 0.000000
0.575625 0.533594 0.000000
0.605938 0.533594 0.000000
0.636250 0.533594 0.000000
0.666562 0.533594 0.000000
0.696875 0.533594 0.000000
0.727187 0.533594 0.000000
0.757500 0.533594 0.000000
0.787813 0.533594 0.000000
0.818125 0.533594 0.000000
0.848437 0.533594 0.000000
0.878750 0.533594 0.000000
0.909062 0.533594 0.000000
0.939375 0.533594 0.000000
0.969688 0.533594 0.000000
1.000000 0.533594 0.000000
0.030000 0.564688 0.000000
0.060312 0.564688 0.000000
0.090625 0.564688 0.000000
0.120938 0.564688 0.000000
0.151250 0.564688 0.000000
0.181562 0.564688 0.000000
0.211875 0.564688 0.000000
0.242188 0.564688 0.000000
0.272500 0.564688 0.000000
0.302812 0.564688 0.000000
0.333125 0.564688 0.000000
0.363438 0.564688 0.000000
0.393750 0.564688 0.000000
0.424063 0.564688 0.000000
0.454375 0.564688 0.000000
0.484687 0.564688 0.000000
0.515000 0.564688 0.000000
0.545312 0.564688 0.000000
0.575625 0.564688 0.000000
0.605938 0.564688 0.000000
0.636250 0.564688 0.000000
0.666562 0.564688 0.000000
0.696875 0.564688 0.000000
0.727187 0.564688 0.000000
0.757500 0.564688 0.000000
0.787813 0.564688 0.000000
0.818125 0.564688 0.000000
0.848437 0.564688 0.000000
0.878750 0.564688 0.000000
0.909062 0.564688 0.000000
0.939375 0.564688 0.000000
0.969688 0.564688 0.000000
1.000000 0.564688 0.000000
0.030000 0.595781 0.000000
0.060312 0.595781 0.000000
0.090625 0.595781 0.000000
0.120938 0.595781 0.000000
0.151250 0.595781 0.000000
0.181562 0.595781 0.000000
0.211875 0.595781 0.000000
0.242188 0.595781 0.000000
0.272500 0.595781 0.000000
0.302812 0.595781 0.000000
0.333125 0.595781 0.000000
0.363438 0.595781 0.000000
0.393750 0.595781 0.000000
0.424063 0.595781 0.000000
0.454375 0.595781 0.000000
0.484687 0.595781 0.000000
0.515000 0.595781 0.000000
0.545312 0.595781 0.000000
0.575625 0.595781 0.000000
0.605938 0.595781 0.000000
0.636250 0.595781 0.000000
0.666562 0.595781 0.000000
0.696875 0.595781 0.000000
0.727187 0.595781 0.000000
0.757500 0.595781 0.000000
0.787813 0.595781 0.000000
0.818125 0.595781 0.000000
0.848437 0.595781 0.000000
0.878750 0.595781 0.000000
0.909062 0.595781 0.000000
0.939375 0.595781 0.000000
0.969688 0.595781 0.000000
1.000000 0.595781 0.000000
0.030000 0.626875 0.000000
0.060312 0.626875 0.000000
0.090625 0.626875 0.000000
0.120938 0.626875 0.000000
0.151250 0.626875 0.000000
0.181562 0.626875 0.000000
0.211875 0.626875 0.000000
0.242188 0.626875 0.000000
0.272500 0.626875 0.000000
0.302812 0.626875 0.000000
0.333125 0.626875 0.000000
0.363438 0.626875 0.000000
0.393750 0.626875 0.000000
0.424063 0.626875 0.000000
0.454375 0.626875 0.000000
0.484687 0.626875 0.000000
0.515000 0.626875 0.000000
0.545312 0.626875 0.000000
0.575625 0.626875 0.000000
0.605938 0.626875 0.000000
0.636250 0.626875 0.000000
0.666562 0.626875 0.000000
0.696875 0.626875 0.000000
0.727187 0.626875 0.000000
0.757500 0.626875 0.000000
0.787813 0.626875 0.000000
0.818125 0.626875 0.000000
0.848437 0.626875 0.000000
0.878750 0.626875 0.000000
0.909062 0.626875 0.000000
0.939375 0.626875 0.000000
0.969688 0.626875 0.000000
1.000000 0.626875 0.000000
0.030000 0.657969 0.000000
0.060312 0.657969 0.000000
0.090625 0.657969 0.000000
0.120938 0.657969 0.000000
0.151250 0.657969 0.000000
0.181562 0.657969 0.000000
0.211875 0.657969 0.000000
0.242188 0.657969 0.000000
0.272500 0.657969 0.000000
0.302812 0.657969 0.000000
0.333125 0.657969 0.000000
0.363438 0.657969 0.000000
0.393750 0.657969 0.000000
0.424063 0.657969 0.000000
0.454375 0.657969 0.000000
0.484687 0.657969 0.000000
0.515000 0.657969 0.000000
0.545312 0.657969 0.000000
0.575625 0.657969 0.000000
0.605938 0.657969 0.000000
0.636250 0.657969 0.000000
0.666562 0.657969 0.000000
0.696875 0.657969 0.000000
0.727187 0.657969 0.000000
0.757500 0.657969 0.000000
0.787813 0.657969 0.000000
0.818125 0.657969 0.000000
0.848437 0.657969 0.000000
0.878750 0.657969 0.000000
0.909062 0.657969 0.000000
0.939375 0.657969 0.000000
0.969688 0.657969 0.000000
1.000000 0.657969 0.000000
0.030000 0.689063 0.000000
0.060312 0.689063 0.000000
0.090625 0.689063 0.000000
0.120938 0.689063 0.000000
0.151250 0.689063 0.000000
0.181562 0.689063 0.000000
0.211875 0.689063 0.000000
0.242188 0.689063 0.000000
0.272500 0.689063 0.000000
0.302812 0.689063 0.000000
0.333125 0.689063 0.000000
0.363438 0.689063 0.000000
0.393750 0.689063 0.000000
0.424063 0.689063 0.000000
0.454375 0.689063 0.000000
0.484687 0.689063 0.000000
0.515000 0.689063 0.000000
0.545312 0.689063 0.000000
0.575625 0.689063 0.000000
0.605938 0.689063 0.000000
0.636250 0.689063 0.000000
0.666562 0.689063 0.000000
0.696875 0.689063 0.000000
0.727187 0.689063 0.000000
0.757500 0.689063 0.000000
0.787813 0.689063 0.000000
0.818125 0.689063 0.000000
0.848437 0.689063 0.000000
0.878750 0.689063 0.000000
0.909062 0.689063 0.000000
0.939375 0.689063 0.000000
0.969688 0.689063 0.000000
1.000000 0.689063 0.000000
0.030000 0.720156 0.000000
0.060312 0.720156 0.000000
0.090625 0.720156 0.000000
0.120938 0.720156 0.000000
0.151250 0.720156 0.000000
0.181562 0.720156 0.000000
0.211875 0.720156 0.000000
0.242188 0.720156 0.000000
0.272500 0.720156 0.000000
0.302812 0.720156 0.000000
0.333125 0.720156 0.000000
0.363438 0.720156 0.000000
0.393750 0.720156 0.000000
0.424063 0.720156 0.000000
0.454375 0.720156 0.000000
0.484687 0.720156 0.000000
0.515000 0.720156 0.000000
0.545312 0.720156 0.000000
0.575625 0.720156 0.000000
0.605938 0.720156 0.000000
0.636250 0.720156 0.000000
0.666562 0.720156 0.000000
0.696875 0.720156 0.000000
0.727187 0.720156 0.000000
0.757500 0.720156 0.000000
0.787813 0.720156 0.000000
0.818125 0.720156 0.000000
0.848437 0.720156 0.000000
0.878750 0.720156 0.000000
0.909062 0.720156 0.000000
0.939375 0.720156 0.000000
0.969688 0.720156 0.000000
1.000000 0.720156 0.000000
0.030000 0.751250 0.000000
0.060312 0.751250 0.000000
0.090625 0.751250 0.000000
0.120938 0.751250 0.000000
0.151250 0.751250 0.000000
0.181562 0.751250 0.000000
0.211875 0.751250 0.000000
0.242188 0.751250 0.000000
0.272500 0.751250 0.000000
0.302812 0.751250 0.000000
0.333125 0.751250 0.000000
0.363438 0.751250 0.000000
0.393750 0.751250 0.000000
0.424063 0.751250 0.000000
0.454375 0.751250 0.000000
0.484687 0.751250 0.000000
0.515000 0.751250 0.000000
0.545312 0.751250 0.000000
0.575625 0.751250 0.000000
0.605938 0.751250 0.000000
0.636250 0.751250 0.000000
0.666562 0.751250 0.000000
0.696875 0.751250 0.000000
0.727187 0.751250 0.000000
0.757500 0.751250 0.000000
0.787813 0.751250 0.000000
0.818125 0.751250 0.000000
0.848437 0.751250 0.000000
0.878750 0.751250 0.000000
0.909062 0.751250 0.000000
0.939375 0.751250 0.000000
0.969688 0.751250 0.000000
1.000000 0.751250 0.000000
0.030000 0.782344 0.000000
0.060312 0.782344 0.000000
0.090625 0.782344 0.000000
0.120938 0.782344 0.000000
0.151250 0.782344 0.000000
0.181562 0.782344 0.000000
0.211875 0.782344 0.000000
0.242188 0.782344 0.000000
0.272500 0.782344 0.000000
0.302812 0.782344 0.000000
0.333125 0.782344 0.000000
0.363438 0.782344 0.000000
0.393750 0.782344 0.000000
0.424063 0.782344 0.000000
0.454375 0.782344 0.000000
0.484687 0.782344 0.000000
0.515000 0.782344 0.000000
0.545312 0.782344 0.000000
0.575625 0.782344 0.000000
0.605938 0.782344 0.000000
0.636250 0.782344 0.000000
0.666562 0.782344 0.000000
0.696875 0.782344 0.000000
0.727187 0.782344 0.000000
0.757500 0.782344 0.000000
0.787813 0.782344 0.000000
0.818125 0.782344 0.000000
0.848437 0.782344 0.000000
0.878750 0.782344 0.000000
0.909062 0.782344 0.000000
0.939375 0.782344 0.000000
0.969688 0.782344 0.000000
1.000000 0.782344 0.000000
0.030000 0.813438 0.000000
0.060312 0.813438 0.000000
0.090625 0.813438 0.000000
0.120938 0.813438 0.000000
0.151250 0.813438 0.000000
0.181562 0.813438 0.000000
0.211875 0.813438 0.000000
0.242188 0.813438 0.000000
0.272500 0.813438 0.000000
0.302812 0.813438 0.000000
0.333125 0.813438 0.000000
0.363438 0.813438 0.000000
0.393750 0.813438 0.000000
0.424063 0.813438 0.000000
0.454375 0.813438 0.000000
0.484687 0.813438 0.000000
0.515000 0.813438 0.000000
0.545312 0.813438 0.000000
0.575625 0.813438 0.000000
0.605938 0.813438 0.000000
0.636250 0.813438 0.000000
0.666562 0.813438 0.000000
0.696875 0.813438 0.000000
0.727187 0.813438 0.000000
0.757500 0.813438 0.000000
0.787813 0.813438 0.000000
0.818125 0.813438 0.000000
