luts/warm_subtle.cube
TITLE "warm_subtle"
LUT_3D_SIZE 9
DOMAIN_MIN 0.0 0.0 0.0
DOMAIN_MAX 1.0 1.0 1.0
0.027120 0.004520 0.000000
0.145580 0.003920 0.000000
0.269260 0.004280 0.000000
0.393300 0.004880 0.000000
0.515000 0.005000 0.000000
0.636250 0.005000 0.000000
0.757500 0.005000 0.000000
0.878750 0.005000 0.000000
1.000000 0.005000 0.000000
0.030000 0.129375 0.000000
0.147470 0.128745 0.000000
0.265210 0.127958 0.000000
0.389700 0.128430 0.000000
0.514460 0.129218 0.000000
0.636250 0.129375 0.000000
0.757500 0.129375 0.000000
0.878750 0.129375 0.000000
1.000000 0.129375 0.000000
0.030000 0.253750 0.000000
0.151250 0.253750 0.000000
0.271060 0.253510 0.000000
0.391050 0.253210 0.000000
0.513560 0.253390 0.000000
0.636070 0.253690 0.000000
0.757500 0.253750 0.000000
0.878750 0.253750 0.000000
1.000000 0.253750 0.000000
0.030000 0.378125 0.000000
0.151250 0.378125 0.000000
0.272500 0.378125 0.000000
0.393750 0.378125 0.000000
0.515000 0.378125 0.000000
0.636250 0.378125 0.000000
0.757500 0.378125 0.000000
0.878750 0.378125 0.000000
1.000000 0.378125 0.000000
0.030000 0.502500 0.000000
0.151250 0.502500 0.000000
0.272500 0.502500 0.000000
0.393750 0.502500 0.000000
0.515000 0.502500 0.000000
0.636250 0.502500 0.000000
0.757500 0.502500 0.000000
0.878750 0.502500 0.000000
1.000000 0.502500 0.000000
0.030000 0.626875 0.000000
0.151250 0.626875 0.000000
0.272500 0.626875 0.000000
0.393750 0.626875 0.000000
0.515000 0.626875 0.000000
0.636250 0.626875 0.000000
0.757500 0.626875 0.000000
0.878750 0.626875 0.000000
1.000000 0.626875 0.000000
0.030000 0.751250 0.000000
0.151250 0.751250 0.000000
0.272500 0.751250 0.000000
0.393750 0.751250 0.000000
0.515000 0.751250 0.000000
0.636250 0.751250 0.000000
0.757500 0.751250 0.000000
0.878750 0.751250 0.000000
1.000000 0.751250 0.000000
0.030000 0.875625 0.000000
0.151250 0.875625 0.000000
0.272500 0.875625 0.000000
0.393750 0.875625 0.000000
0.515000 0.875625 0.000000
0.636250 0.875625 0.000000
0.757500 0.875625 0.000000
0.878750 0.875625 0.000000
1.000000 0.875625 0.000000
0.030000 1.000000 0.000000
0.151250 1.000000 0.000000
0.272500 1.000000 0.000000
0.393750 1.000000 0.000000
0.515000 1.000000 0.000000
0.636250 1.000000 0.000000
0.757500 1.000000 0.000000
0.878750 1.000000 0.000000
1.000000 1.000000 0.000000
0.029520 0.004920 0.121925
0.150305 0.004820 0.121987
0.271960 0.004880 0.121950
0.393675 0.004980 0.121887
0.515000 0.005000 0.121875
0.636250 0.005000 0.121875
0.757500 0.005000 0.121875
0.878750 0.005000 0.121875
1.000000 0.005000 0.121875
0.030000 0.129375 0.121875
0.148730 0.128955 0.122175
0.267640 0.128430 0.122550
0.391050 0.128745 0.122325
0.514640 0.129270 0.121950
0.636250 0.129375 0.121875
0.757500 0.129375 0.121875
0.878750 0.129375 0.121875
1.000000 0.129375 0.121875
0.030000 0.253750 0.121875
0.151250 0.253750 0.121875
0.269260 0.253210 0.122325
0.387675 0.252535 0.122887
0.511760 0.252940 0.122550
0.635845 0.253615 0.121987
0.757500 0.253750 0.121875
0.878750 0.253750 0.121875
1.000000 0.253750 0.121875
0.030000 0.378125 0.121875
0.151250 0.378125 0.121875
0.272500 0.378125 0.121875
0.392550 0.377925 0.122075
0.512840 0.377675 0.122325
0.635170 0.377825 0.122175
0.757380 0.378075 0.121925
0.878750 0.378125 0.121875
1.000000 0.378125 0.121875
0.030000 0.502500 0.121875
0.151250 0.502500 0.121875
0.272500 0.502500 0.121875
0.393750 0.502500 0.121875
0.515000 0.502500 0.121875
0.636250 0.502500 0.121875
0.757500 0.502500 0.121875
0.878750 0.502500 0.121875
1.000000 0.502500 0.121875
0.030000 0.626875 0.121875
0.151250 0.626875 0.121875
0.272500 0.626875 0.121875
0.393750 0.626875 0.121875
0.515000 0.626875 0.121875
0.636250 0.626875 0.121875
0.757500 0.626875 0.121875
0.878750 0.626875 0.121875
1.000000 0.626875 0.121875
0.030000 0.751250 0.121875
0.151250 0.751250 0.121875
0.272500 0.751250 0.121875
0.393750 0.751250 0.121875
0.515000 0.751250 0.121875
0.636250 0.751250 0.121875
0.757500 0.751250 0.121875
0.878750 0.751250 0.121875
1.000000 0.751250 0.121875
0.030000 0.875625 0.121875
0.151250 0.875625 0.121875
0.272500 0.875625 0.121875
0.393750 0.875625 0.121875
0.515000 0.875625 0.121875
0.636250 0.875625 0.121875
0.757500 0.875625 0.121875
0.878750 0.875625 0.121875
1.000000 0.875625 0.121875
0.030000 1.000000 0.121875
0.151250 1.000000 0.121875
0.272500 1.000000 0.121875
0.393750 1.000000 0.121875
0.515000 1.000000 0.121875
0.636250 1.000000 0.121875
0.757500 1.000000 0.121875
0.878750 1.000000 0.121875
1.000000 1.000000 0.121875
0.030000 0.005000 0.243750
0.151250 0.005000 0.243750
0.272500 0.005000 0.243750
0.393750 0.005000 0.243750
0.515000 0.005000 0.243750
0.636250 0.005000 0.243750
0.757500 0.005000 0.243750
0.878750 0.005000 0.243750
1.000000 0.005000 0.243750
0.030000 0.129375 0.243750
0.150830 0.129305 0.243850
0.271690 0.129218 0.243975
0.393300 0.129270 0.243900
0.514940 0.129358 0.243775
0.636250 0.129375 0.243750
0.757500 0.129375 0.243750
0.878750 0.129375 0.243750
1.000000 0.129375 0.243750
0.030000 0.253750 0.243750
0.151250 0.253750 0.243750
0.270340 0.253390 0.244350
0.389700 0.252940 0.245100
0.512840 0.253210 0.244650
0.635980 0.253660 0.243900
0.757500 0.253750 0.243750
0.878750 0.253750 0.243750
1.000000 0.253750 0.243750
0.030000 0.378125 0.243750
0.151250 0.378125 0.243750
0.272500 0.378125 0.243750
0.391050 0.377675 0.244650
0.510140 0.377113 0.245775
0.633820 0.377450 0.245100
0.757230 0.378012 0.243975
0.878750 0.378125 0.243750
1.000000 0.378125 0.243750
0.030000 0.502500 0.243750
0.151250 0.502500 0.243750
0.272500 0.502500 0.243750
0.393750 0.502500 0.243750
0.514040 0.502340 0.244150
0.634630 0.502140 0.244650
0.756780 0.502260 0.244350
0.878690 0.502460 0.243850
1.000000 0.502500 0.243750
0.030000 0.626875 0.243750
0.151250 0.626875 0.243750
0.272500 0.626875 0.243750
0.393750 0.626875 0.243750
0.515000 0.626875 0.243750
0.636250 0.626875 0.243750
0.757500 0.626875 0.243750
0.878750 0.626875 0.243750
1.000000 0.626875 0.243750
0.030000 0.751250 0.243750
0.151250 0.751250 0.243750
0.272500 0.751250 0.243750
0.393750 0.751250 0.243750
0.515000 0.751250 0.243750
0.636250 0.751250 0.243750
0.757500 0.751250 0.243750
0.878750 0.751250 0.243750
1.000000 0.751250 0.243750
0.030000 0.875625 0.243750
0.151250 0.875625 0.243750
0.272500 0.875625 0.243750
0.393750 0.875625 0.243750
0.515000 0.875625 0.243750
0.636250 0.875625 0.243750
0.757500 0.875625 0.243750
0.878750 0.875625 0.243750
1.000000 0.875625 0.243750
0.030000 1.000000 0.243750
0.151250 1.000000 0.243750
0.272500 1.000000 0.243750
0.393750 1.000000 0.243750
0.515000 1.000000 0.243750
0.636250 1.000000 0.243750
0.757500 1.000000 0.243750
0.878750 1.000000 0.243750
1.000000 1.000000 0.243750
0.030000 0.005000 0.365625
0.151250 0.005000 0.365625
0.272500 0.005000 0.365625
0.393750 0.005000 0.365625
0.515000 0.005000 0.365625
0.636250 0.005000 0.365625
0.757500 0.005000 0.365625
0.878750 0.005000 0.365625
1.000000 0.005000 0.365625
0.030000 0.129375 0.365625
0.151250 0.129375 0.365625
0.272500 0.129375 0.365625
0.393750 0.129375 0.365625
0.515000 0.129375 0.365625
0.636250 0.129375 0.365625
0.757500 0.129375 0.365625
0.878750 0.129375 0.365625
1.000000 0.129375 0.365625
0.030000 0.253750 0.365625
0.151250 0.253750 0.365625
0.272140 0.253690 0.365775
0.393075 0.253615 0.365963
0.514640 0.253660 0.365850
0.636205 0.253735 0.365663
0.757500 0.253750 0.365625
0.878750 0.253750 0.365625
1.000000 0.253750 0.365625
0.030000 0.378125 0.365625
0.151250 0.378125 0.365625
0.272500 0.378125 0.365625
0.391950 0.377825 0.366525
0.511760 0.377450 0.367650
0.634630 0.377675 0.366975
0.757320 0.378050 0.365850
0.878750 0.378125 0.365625
1.000000 0.378125 0.365625
0.030000 0.502500 0.365625
0.151250 0.502500 0.365625
0.272500 0.502500 0.365625
0.393750 0.502500 0.365625
0.512840 0.502140 0.366975
0.632605 0.501690 0.368663
0.755880 0.501960 0.367650
0.878615 0.502410 0.365963
1.000000 0.502500 0.365625
0.030000 0.626875 0.365625
0.151250 0.626875 0.365625
0.272500 0.626875 0.365625
0.393750 0.626875 0.365625
0.515000 0.626875 0.365625
0.635530 0.626755 0.366225
0.756420 0.626605 0.366975
0.878390 0.626695 0.366525
1.000000 0.626845 0.365775
0.030000 0.751250 0.365625
0.151250 0.751250 0.365625
0.272500 0.751250 0.365625
0.393750 0.751250 0.365625
0.515000 0.751250 0.365625
0.636250 0.751250 0.365625
0.757500 0.751250 0.365625
0.878750 0.751250 0.365625
1.000000 0.751250 0.365625
0.030000 0.875625 0.365625
0.151250 0.875625 0.365625
0.272500 0.875625 0.365625
0.393750 0.875625 0.365625
0.515000 0.875625 0.365625
0.636250 0.875625 0.365625
0.757500 0.875625 0.365625
0.878750 0.875625 0.365625
1.000000 0.875625 0.365625
0.030000 1.000000 0.365625
0.151250 1.000000 0.365625
0.272500 1.000000 0.365625
0.393750 1.000000 0.365625
0.515000 1.000000 0.365625
0.636250 1.000000 0.365625
0.757500 1.000000 0.365625
0.878750 1.000000 0.365625
1.000000 1.000000 0.365625
0.030000 0.005000 0.487500
0.151250 0.005000 0.487500
0.272500 0.005000 0.487500
0.393750 0.005000 0.487500
0.515000 0.005000 0.487500
0.636250 0.005000 0.487500
0.757500 0.005000 0.487500
0.878750 0.005000 0.487500
1.000000 0.005000 0.487500
0.030000 0.129375 0.487500
0.151250 0.129375 0.487500
0.272500 0.129375 0.487500
0.393750 0.129375 0.487500
0.515000 0.129375 0.487500
0.636250 0.129375 0.487500
0.757500 0.129375 0.487500
0.878750 0.129375 0.487500
1.000000 0.129375 0.487500
0.030000 0.253750 0.487500
0.151250 0.253750 0.487500
0.272500 0.253750 0.487500
0.393750 0.253750 0.487500
0.515000 0.253750 0.487500
0.636250 0.253750 0.487500
0.757500 0.253750 0.487500
0.878750 0.253750 0.487500
1.000000 0.253750 0.487500
0.030000 0.378125 0.487500
0.151250 0.378125 0.487500
0.272500 0.378125 0.487500
0.393450 0.378075 0.487700
0.514460 0.378012 0.487950
0.635980 0.378050 0.487800
0.757470 0.378113 0.487550
0.878750 0.378125 0.487500
1.000000 0.378125 0.487500
0.030000 0.502500 0.487500
0.151250 0.502500 0.487500
0.272500 0.502500 0.487500
0.393750 0.502500 0.487500
0.513560 0.502260 0.488700
0.633820 0.501960 0.490200
0.756420 0.502140 0.489300
0.878660 0.502440 0.487800
1.000000 0.502500 0.487500
0.030000 0.626875 0.487500
0.151250 0.626875 0.487500
0.272500 0.626875 0.487500
0.393750 0.626875 0.487500
0.515000 0.626875 0.487500
0.634630 0.626605 0.489300
0.755070 0.626267 0.491550
0.877940 0.626470 0.490200
1.000000 0.626807 0.487950
0.030000 0.751250 0.487500
0.151250 0.751250 0.487500
0.272500 0.751250 0.487500
0.393750 0.751250 0.487500
0.515000 0.751250 0.487500
0.636250 0.751250 0.487500
0.757020 0.751170 0.488300
0.878210 0.751070 0.489300
1.000000 0.751130 0.488700
0.030000 0.875625 0.487500
0.151250 0.875625 0.487500
0.272500 0.875625 0.487500
0.393750 0.875625 0.487500
0.515000 0.875625 0.487500
0.636250 0.875625 0.487500
0.757500 0.875625 0.487500
0.878750 0.875625 0.487500
1.000000 0.875625 0.487500
0.030000 1.000000 0.487500
0.151250 1.000000 0.487500
0.272500 1.000000 0.487500
0.393750 1.000000 0.487500
0.515000 1.000000 0.487500
0.636250 1.000000 0.487500
0.757500 1.000000 0.487500
0.878750 1.000000 0.487500
1.000000 1.000000 0.487500
0.030000 0.005000 0.609375
0.151250 0.005000 0.609375
0.272500 0.005000 0.609375
0.393750 0.005000 0.609375
0.515000 0.005000 0.609375
0.636250 0.005000 0.609375
0.757500 0.005000 0.609375
0.878750 0.005000 0.609375
1.000000 0.005000 0.609375
0.030000 0.129375 0.609375
0.151250 0.129375 0.609375
0.272500 0.129375 0.609375
0.393750 0.129375 0.609375
0.515000 0.129375 0.609375
0.636250 0.129375 0.609375
0.757500 0.129375 0.609375
0.878750 0.129375 0.609375
1.000000 0.129375 0.609375
0.030000 0.253750 0.609375
0.151250 0.253750 0.609375
0.272500 0.253750 0.609375
0.393750 0.253750 0.609375
0.515000 0.253750 0.609375
0.636250 0.253750 0.609375
0.757500 0.253750 0.609375
0.878750 0.253750 0.609375
1.000000 0.253750 0.609375
0.030000 0.378125 0.609375
0.151250 0.378125 0.609375
0.272500 0.378125 0.609375
0.393750 0.378125 0.609375
0.515000 0.378125 0.609375
0.636250 0.378125 0.609375
0.757500 0.378125 0.609375
0.878750 0.378125 0.609375
1.000000 0.378125 0.609375
0.030000 0.502500 0.609375
0.151250 0.502500 0.609375
0.272500 0.502500 0.609375
0.393750 0.502500 0.609375
0.514760 0.502460 0.609625
0.635845 0.502410 0.609938
0.757320 0.502440 0.609750
0.878735 0.502490 0.609437
1.000000 0.502500 0.609375
0.030000 0.626875 0.609375
0.151250 0.626875 0.609375
0.272500 0.626875 0.609375
0.393750 0.626875 0.609375
0.515000 0.626875 0.609375
0.635170 0.626695 0.610875
0.755880 0.626470 0.612750
0.878210 0.626605 0.611625
1.000000 0.626830 0.609750
0.030000 0.751250 0.609375
0.151250 0.751250 0.609375
0.272500 0.751250 0.609375
0.393750 0.751250 0.609375
0.515000 0.751250 0.609375
0.636250 0.751250 0.609375
0.756420 0.751070 0.611625
0.877535 0.750845 0.614437
1.000000 0.750980 0.612750
0.030000 0.875625 0.609375
0.151250 0.875625 0.609375
0.272500 0.875625 0.609375
0.393750 0.875625 0.609375
0.515000 0.875625 0.609375
0.636250 0.875625 0.609375
0.757500 0.875625 0.609375
0.878510 0.875585 0.610375
1.000000 0.875535 0.611625
0.030000 1.000000 0.609375
0.151250 1.000000 0.609375
0.272500 1.000000 0.609375
0.393750 1.000000 0.609375
0.515000 1.000000 0.609375
0.636250 1.000000 0.609375
0.757500 1.000000 0.609375
0.878750 1.000000 0.609375
1.000000 1.000000 0.609375
0.030000 0.005000 0.731250
0.151250 0.005000 0.731250
0.272500 0.005000 0.731250
0.393750 0.005000 0.731250
0.515000 0.005000 0.731250
0.636250 0.005000 0.731250
0.757500 0.005000 0.731250
0.878750 0.005000 0.731250
1.000000 0.005000 0.731250
0.030000 0.129375 0.731250
0.151250 0.129375 0.731250
0.272500 0.129375 0.731250
0.393750 0.129375 0.731250
0.515000 0.129375 0.731250
0.636250 0.129375 0.731250
0.757500 0.129375 0.731250
0.878750 0.129375 0.731250
1.000000 0.129375 0.731250
0.030000 0.253750 0.731250
0.151250 0.253750 0.731250
0.272500 0.253750 0.731250
0.393750 0.253750 0.731250
0.515000 0.253750 0.731250
0.636250 0.253750 0.731250
0.757500 0.253750 0.731250
0.878750 0.253750 0.731250
1.000000 0.253750 0.731250
0.030000 0.378125 0.731250
0.151250 0.378125 0.731250
0.272500 0.378125 0.731250
0.393750 0.378125 0.731250
0.515000 0.378125 0.731250
0.636250 0.378125 0.731250
0.757500 0.378125 0.731250
0.878750 0.378125 0.731250
1.000000 0.378125 0.731250
0.030000 0.502500 0.731250
0.151250 0.502500 0.731250
0.272500 0.502500 0.731250
0.393750 0.502500 0.731250
0.515000 0.502500 0.731250
0.636250 0.502500 0.731250
0.757500 0.502500 0.731250
0.878750 0.502500 0.731250
1.000000 0.502500 0.731250
0.030000 0.626875 0.731250
0.151250 0.626875 0.731250
0.272500 0.626875 0.731250
0.393750 0.626875 0.731250
0.515000 0.626875 0.731250
0.636070 0.626845 0.731550
0.757230 0.626807 0.731925
0.878660 0.626830 0.731700
1.000000 0.626868 0.731325
0.030000 0.751250 0.731250
0.151250 0.751250 0.731250
0.272500 0.751250 0.731250
0.393750 0.751250 0.731250
0.515000 0.751250 0.731250
0.636250 0.751250 0.731250
0.756780 0.751130 0.733050
0.877940 0.750980 0.735300
1.000000 0.751070 0.733950
0.030000 0.875625 0.731250
0.151250 0.875625 0.731250
0.272500 0.875625 0.731250
0.393750 0.875625 0.731250
0.515000 0.875625 0.731250
0.636250 0.875625 0.731250
0.757500 0.875625 0.731250
0.878210 0.875535 0.733950
1.000000 0.875422 0.737325
0.030000 1.000000 0.731250
0.151250 1.000000 0.731250
0.272500 1.000000 0.731250
0.393750 1.000000 0.731250
0.515000 1.000000 0.731250
0.636250 1.000000 0.731250
0.757500 1.000000 0.731250
0.878750 1.000000 0.731250
1.000000 1.000000 0.732450
0.030000 0.005000 0.853125
0.151250 0.005000 0.853125
0.272500 0.005000 0.853125
0.393750 0.005000 0.853125
0.515000 0.005000 0.853125
0.636250 0.005000 0.853125
0.757500 0.005000 0.853125
0.878750 0.005000 0.853125
1.000000 0.005000 0.853125
0.030000 0.129375 0.853125
0.151250 0.129375 0.853125
0.272500 0.129375 0.853125
0.393750 0.129375 0.853125
0.515000 0.129375 0.853125
0.636250 0.129375 0.853125
0.757500 0.129375 0.853125
0.878750 0.129375 0.853125
1.000000 0.129375 0.853125
0.030000 0.253750 0.853125
0.151250 0.253750 0.853125
0.272500 0.253750 0.853125
0.393750 0.253750 0.853125
0.515000 0.253750 0.853125
0.636250 0.253750 0.853125
0.757500 0.253750 0.853125
0.878750 0.253750 0.853125
1.000000 0.253750 0.853125
0.030000 0.378125 0.853125
0.151250 0.378125 0.853125
0.272500 0.378125 0.853125
0.393750 0.378125 0.853125
0.515000 0.378125 0.853125
0.636250 0.378125 0.853125
0.757500 0.378125 0.853125
0.878750 0.378125 0.853125
1.000000 0.378125 0.853125
0.030000 0.502500 0.853125
0.151250 0.502500 0.853125
0.272500 0.502500 0.853125
0.393750 0.502500 0.853125
0.515000 0.502500 0.853125
0.636250 0.502500 0.853125
0.757500 0.502500 0.853125
0.878750 0.502500 0.853125
1.000000 0.502500 0.853125
0.030000 0.626875 0.853125
0.151250 0.626875 0.853125
0.272500 0.626875 0.853125
0.393750 0.626875 0.853125
0.515000 0.626875 0.853125
0.636250 0.626875 0.853125
0.757500 0.626875 0.853125
0.878750 0.626875 0.853125
1.000000 0.626875 0.853125
0.030000 0.751250 0.853125
0.151250 0.751250 0.853125
0.272500 0.751250 0.853125
0.393750 0.751250 0.853125
0.515000 0.751250 0.853125
0.636250 0.751250 0.853125
0.757380 0.751230 0.853475
0.878615 0.751205 0.853912
1.000000 0.751220 0.853650
0.030000 0.875625 0.853125
0.151250 0.875625 0.853125
0.272500 0.875625 0.853125
0.393750 0.875625 0.853125
0.515000 0.875625 0.853125
0.636250 0.875625 0.853125
0.757500 0.875625 0.853125
0.878390 0.875565 0.855225
1.000000 0.875490 0.857850
0.030000 1.000000 0.853125
0.151250 1.000000 0.853125
0.272500 1.000000 0.853125
0.393750 1.000000 0.853125
0.515000 1.000000 0.853125
0.636250 1.000000 0.853125
0.757500 1.000000 0.853125
0.878750 1.000000 0.853125
1.000000 1.000000 0.856275
0.030000 0.005000 0.975000
0.151250 0.005000 0.975000
0.272500 0.005000 0.975000
0.393750 0.005000 0.975000
0.515000 0.005000 0.975000
0.636250 0.005000 0.975000
0.757500 0.005000 0.975000
0.878750 0.005000 0.975000
1.000000 0.005000 0.975000
0.030000 0.129375 0.975000
0.151250 0.129375 0.975000
0.272500 0.129375 0.975000
0.393750 0.129375 0.975000
0.515000 0.129375 0.975000
0.636250 0.129375 0.975000
0.757500 0.129375 0.975000
0.878750 0.129375 0.975000
1.000000 0.129375 0.975000
0.030000 0.253750 0.975000
0.151250 0.253750 0.975000
0.272500 0.253750 0.975000
0.393750 0.253750 0.975000
0.515000 0.253750 0.975000
0.636250 0.253750 0.975000
0.757500 0.253750 0.975000
0.878750 0.253750 0.975000
1.000000 0.253750 0.975000
0.030000 0.378125 0.975000
0.151250 0.378125 0.975000
0.272500 0.378125 0.975000
0.393750 0.378125 0.975000
0.515000 0.378125 0.975000
0.636250 0.378125 0.975000
0.757500 0.378125 0.975000
0.878750 0.378125 0.975000
1.000000 0.378125 0.975000
0.030000 0.502500 0.975000
0.151250 0.502500 0.975000
0.272500 0.502500 0.975000
0.393750 0.502500 0.975000
0.515000 0.502500 0.975000
0.636250 0.502500 0.975000
0.757500 0.502500 0.975000
0.878750 0.502500 0.975000
1.000000 0.502500 0.975000
0.030000 0.626875 0.975000
0.151250 0.626875 0.975000
0.272500 0.626875 0.975000
0.393750 0.626875 0.975000
0.515000 0.626875 0.975000
0.636250 0.626875 0.975000
0.757500 0.626875 0.975000
0.878750 0.626875 0.975000
1.000000 0.626875 0.975000
0.030000 0.751250 0.975000
0.151250 0.751250 0.975000
0.272500 0.751250 0.975000
0.393750 0.751250 0.975000
0.515000 0.751250 0.975000
0.636250 0.751250 0.975000
0.757500 0.751250 0.975000
0.878750 0.751250 0.975000
1.000000 0.751250 0.975000
0.030000 0.875625 0.975000
0.151250 0.875625 0.975000
0.272500 0.875625 0.975000
0.393750 0.875625 0.975000
0.515000 0.875625 0.975000
0.636250 0.875625 0.975000
0.757500 0.875625 0.975000
0.878690 0.875615 0.975400
1.000000 0.875602 0.975900
0.030000 1.000000 0.975000
0.151250 1.000000 0.975000
0.272500 1.000000 0.975000
0.393750 1.000000 0.975000
0.515000 1.000000 0.975000
0.636250 1.000000 0.975000
0.757500 1.000000 0.975000
0.878750 1.000000 0.975000
1.000000 1.000000 0.977400
