luts/warm_rich.cube
TITLE "warm_rich"
LUT_3D_SIZE 9
DOMAIN_MIN 0.0 0.0 0.0
DOMAIN_MAX 1.0 1.0 1.0
0.086784 0.014464 0.000000
0.190856 0.012544 0.000000
0.311632 0.013696 0.000000
0.433560 0.015616 0.000000
0.548000 0.016000 0.000000
0.661000 0.016000 0.000000
0.774000 0.016000 0.000000
0.887000 0.016000 0.000000
1.000000 0.016000 0.000000
0.096000 0.139000 0.000000
0.196904 0.136984 0.000000
0.298672 0.134464 0.000000
0.422040 0.135976 0.000000
0.546272 0.138496 0.000000
0.661000 0.139000 0.000000
0.774000 0.139000 0.000000
0.887000 0.139000 0.000000
1.000000 0.139000 0.000000
0.096000 0.262000 0.000000
0.209000 0.262000 0.000000
0.317392 0.261232 0.000000
0.426360 0.260272 0.000000
0.543392 0.260848 0.000000
0.660424 0.261808 0.000000
0.774000 0.262000 0.000000
0.887000 0.262000 0.000000
1.000000 0.262000 0.000000
0.096000 0.385000 0.000000
0.209000 0.385000 0.000000
0.322000 0.385000 0.000000
0.435000 0.385000 0.000000
0.548000 0.385000 0.000000
0.661000 0.385000 0.000000
0.774000 0.385000 0.000000
0.887000 0.385000 0.000000
1.000000 0.385000 0.000000
0.096000 0.508000 0.000000
0.209000 0.508000 0.000000
0.322000 0.508000 0.000000
0.435000 0.508000 0.000000
0.548000 0.508000 0.000000
0.661000 0.508000 0.000000
0.774000 0.508000 0.000000
0.887000 0.508000 0.000000
1.000000 0.508000 0.000000
0.096000 0.631000 0.000000
0.209000 0.631000 0.000000
0.322000 0.631000 0.000000
0.435000 0.631000 0.000000
0.548000 0.631000 0.000000
0.661000 0.631000 0.000000
0.774000 0.631000 0.000000
0.887000 0.631000 0.000000
1.000000 0.631000 0.000000
0.096000 0.754000 0.000000
0.209000 0.754000 0.000000
0.322000 0.754000 0.000000
0.435000 0.754000 0.000000
0.548000 0.754000 0.000000
0.661000 0.754000 0.000000
0.774000 0.754000 0.000000
0.887000 0.754000 0.000000
1.000000 0.754000 0.000000
0.096000 0.877000 0.000000
0.209000 0.877000 0.000000
0.322000 0.877000 0.000000
0.435000 0.877000 0.000000
0.548000 0.877000 0.000000
0.661000 0.877000 0.000000
0.774000 0.877000 0.000000
0.887000 0.877000 0.000000
1.000000 0.877000 0.000000
0.096000 1.000000 0.000000
0.209000 1.000000 0.000000
0.322000 1.000000 0.000000
0.435000 1.000000 0.000000
0.548000 1.000000 0.000000
0.661000 1.000000 0.000000
0.774000 1.000000 0.000000
0.887000 1.000000 0.000000
1.000000 1.000000 0.000000
0.094464 0.015744 0.115160
0.205976 0.015424 0.115360
0.320272 0.015616 0.115240
0.434760 0.015936 0.115040
0.548000 0.016000 0.115000
0.661000 0.016000 0.115000
0.774000 0.016000 0.115000
0.887000 0.016000 0.115000
1.000000 0.016000 0.115000
0.096000 0.139000 0.115000
0.200936 0.137656 0.115960
0.306448 0.135976 0.117160
0.426360 0.136984 0.116440
0.546848 0.138664 0.115240
0.661000 0.139000 0.115000
0.774000 0.139000 0.115000
0.887000 0.139000 0.115000
1.000000 0.139000 0.115000
0.096000 0.262000 0.115000
0.209000 0.262000 0.115000
0.311632 0.260272 0.116440
0.415560 0.258112 0.118240
0.537632 0.259408 0.117160
0.659704 0.261568 0.115360
0.774000 0.262000 0.115000
0.887000 0.262000 0.115000
1.000000 0.262000 0.115000
0.096000 0.385000 0.115000
0.209000 0.385000 0.115000
0.322000 0.385000 0.115000
0.431160 0.384360 0.115640
0.541088 0.383560 0.116440
0.657544 0.384040 0.115960
0.773616 0.384840 0.115160
0.887000 0.385000 0.115000
1.000000 0.385000 0.115000
0.096000 0.508000 0.115000
0.209000 0.508000 0.115000
0.322000 0.508000 0.115000
0.435000 0.508000 0.115000
0.548000 0.508000 0.115000
0.661000 0.508000 0.115000
0.774000 0.508000 0.115000
0.887000 0.508000 0.115000
1.000000 0.508000 0.115000
0.096000 0.631000 0.115000
0.209000 0.631000 0.115000
0.322000 0.631000 0.115000
0.435000 0.631000 0.115000
0.548000 0.631000 0.115000
0.661000 0.631000 0.115000
0.774000 0.631000 0.115000
0.887000 0.631000 0.115000
1.000000 0.631000 0.115000
0.096000 0.754000 0.115000
0.209000 0.754000 0.115000
0.322000 0.754000 0.115000
0.435000 0.754000 0.115000
0.548000 0.754000 0.115000
0.661000 0.754000 0.115000
0.774000 0.754000 0.115000
0.887000 0.754000 0.115000
1.000000 0.754000 0.115000
0.096000 0.877000 0.115000
0.209000 0.877000 0.115000
0.322000 0.877000 0.115000
0.435000 0.877000 0.115000
0.548000 0.877000 0.115000
0.661000 0.877000 0.115000
0.774000 0.877000 0.115000
0.887000 0.877000 0.115000
1.000000 0.877000 0.115000
0.096000 1.000000 0.115000
0.209000 1.000000 0.115000
0.322000 1.000000 0.115000
0.435000 1.000000 0.115000
0.548000 1.000000 0.115000
0.661000 1.000000 0.115000
0.774000 1.000000 0.115000
0.887000 1.000000 0.115000
1.000000 1.000000 0.115000
0.096000 0.016000 0.230000
0.209000 0.016000 0.230000
0.322000 0.016000 0.230000
0.435000 0.016000 0.230000
0.548000 0.016000 0.230000
0.661000 0.016000 0.230000
0.774000 0.016000 0.230000
0.887000 0.016000 0.230000
1.000000 0.016000 0.230000
0.096000 0.139000 0.230000
0.207656 0.138776 0.230320
0.319408 0.138496 0.230720
0.433560 0.138664 0.230480
0.547808 0.138944 0.230080
0.661000 0.139000 0.230000
0.774000 0.139000 0.230000
0.887000 0.139000 0.230000
1.000000 0.139000 0.230000
0.096000 0.262000 0.230000
0.209000 0.262000 0.230000
0.315088 0.260848 0.231920
0.422040 0.259408 0.234320
0.541088 0.260272 0.232880
0.660136 0.261712 0.230480
0.774000 0.262000 0.230000
0.887000 0.262000 0.230000
1.000000 0.262000 0.230000
0.096000 0.385000 0.230000
0.209000 0.385000 0.230000
0.322000 0.385000 0.230000
0.426360 0.383560 0.232880
0.532448 0.381760 0.236480
0.653224 0.382840 0.234320
0.773136 0.384640 0.230720
0.887000 0.385000 0.230000
1.000000 0.385000 0.230000
0.096000 0.508000 0.230000
0.209000 0.508000 0.230000
0.322000 0.508000 0.230000
0.435000 0.508000 0.230000
0.544928 0.507488 0.231280
0.655816 0.506848 0.232880
0.771696 0.507232 0.231920
0.886808 0.507872 0.230320
1.000000 0.508000 0.230000
0.096000 0.631000 0.230000
0.209000 0.631000 0.230000
0.322000 0.631000 0.230000
0.435000 0.631000 0.230000
0.548000 0.631000 0.230000
0.661000 0.631000 0.230000
0.774000 0.631000 0.230000
0.887000 0.631000 0.230000
1.000000 0.631000 0.230000
0.096000 0.754000 0.230000
0.209000 0.754000 0.230000
0.322000 0.754000 0.230000
0.435000 0.754000 0.230000
0.548000 0.754000 0.230000
0.661000 0.754000 0.230000
0.774000 0.754000 0.230000
0.887000 0.754000 0.230000
1.000000 0.754000 0.230000
0.096000 0.877000 0.230000
0.209000 0.877000 0.230000
0.322000 0.877000 0.230000
0.435000 0.877000 0.230000
0.548000 0.877000 0.230000
0.661000 0.877000 0.230000
0.774000 0.877000 0.230000
0.887000 0.877000 0.230000
1.000000 0.877000 0.230000
0.096000 1.000000 0.230000
0.209000 1.000000 0.230000
0.322000 1.000000 0.230000
0.435000 1.000000 0.230000
0.548000 1.000000 0.230000
0.661000 1.000000 0.230000
0.774000 1.000000 0.230000
0.887000 1.000000 0.230000
1.000000 1.000000 0.230000
0.096000 0.016000 0.345000
0.209000 0.016000 0.345000
0.322000 0.016000 0.345000
0.435000 0.016000 0.345000
0.548000 0.016000 0.345000
0.661000 0.016000 0.345000
0.774000 0.016000 0.345000
0.887000 0.016000 0.345000
1.000000 0.016000 0.345000
0.096000 0.139000 0.345000
0.209000 0.139000 0.345000
0.322000 0.139000 0.345000
0.435000 0.139000 0.345000
0.548000 0.139000 0.345000
0.661000 0.139000 0.345000
0.774000 0.139000 0.345000
0.887000 0.139000 0.345000
1.000000 0.139000 0.345000
0.096000 0.262000 0.345000
0.209000 0.262000 0.345000
0.320848 0.261808 0.345480
0.432840 0.261568 0.346080
0.546848 0.261712 0.345720
0.660856 0.261952 0.345120
0.774000 0.262000 0.345000
0.887000 0.262000 0.345000
1.000000 0.262000 0.345000
0.096000 0.385000 0.345000
0.209000 0.385000 0.345000
0.322000 0.385000 0.345000
0.429240 0.384040 0.347880
0.537632 0.382840 0.351480
0.655816 0.383560 0.349320
0.773424 0.384760 0.345720
0.887000 0.385000 0.345000
1.000000 0.385000 0.345000
0.096000 0.508000 0.345000
0.209000 0.508000 0.345000
0.322000 0.508000 0.345000
0.435000 0.508000 0.345000
0.541088 0.506848 0.349320
0.649336 0.505408 0.354720
0.768816 0.506272 0.351480
0.886568 0.507712 0.346080
1.000000 0.508000 0.345000
0.096000 0.631000 0.345000
0.209000 0.631000 0.345000
0.322000 0.631000 0.345000
0.435000 0.631000 0.345000
0.548000 0.631000 0.345000
0.658696 0.630616 0.346920
0.770544 0.630136 0.349320
0.885848 0.630424 0.347880
1.000000 0.630904 0.345480
0.096000 0.754000 0.345000
0.209000 0.754000 0.345000
0.322000 0.754000 0.345000
0.435000 0.754000 0.345000
0.548000 0.754000 0.345000
0.661000 0.754000 0.345000
0.774000 0.754000 0.345000
0.887000 0.754000 0.345000
1.000000 0.754000 0.345000
0.096000 0.877000 0.345000
0.209000 0.877000 0.345000
0.322000 0.877000 0.345000
0.435000 0.877000 0.345000
0.548000 0.877000 0.345000
0.661000 0.877000 0.345000
0.774000 0.877000 0.345000
0.887000 0.877000 0.345000
1.000000 0.877000 0.345000
0.096000 1.000000 0.345000
0.209000 1.000000 0.345000
0.322000 1.000000 0.345000
0.435000 1.000000 0.345000
0.548000 1.000000 0.345000
0.661000 1.000000 0.345000
0.774000 1.000000 0.345000
0.887000 1.000000 0.345000
1.000000 1.000000 0.345000
0.096000 0.016000 0.460000
0.209000 0.016000 0.460000
0.322000 0.016000 0.460000
0.435000 0.016000 0.460000
0.548000 0.016000 0.460000
0.661000 0.016000 0.460000
0.774000 0.016000 0.460000
0.887000 0.016000 0.460000
1.000000 0.016000 0.460000
0.096000 0.139000 0.460000
0.209000 0.139000 0.460000
0.322000 0.139000 0.460000
0.435000 0.139000 0.460000
0.548000 0.139000 0.460000
0.661000 0.139000 0.460000
0.774000 0.139000 0.460000
0.887000 0.139000 0.460000
1.000000 0.139000 0.460000
0.096000 0.262000 0.460000
0.209000 0.262000 0.460000
0.322000 0.262000 0.460000
0.435000 0.262000 0.460000
0.548000 0.262000 0.460000
0.661000 0.262000 0.460000
0.774000 0.262000 0.460000
0.887000 0.262000 0.460000
1.000000 0.262000 0.460000
0.096000 0.385000 0.460000
0.209000 0.385000 0.460000
0.322000 0.385000 0.460000
0.434040 0.384840 0.460640
0.546272 0.384640 0.461440
0.660136 0.384760 0.460960
0.773904 0.384960 0.460160
0.887000 0.385000 0.460000
1.000000 0.385000 0.460000
0.096000 0.508000 0.460000
0.209000 0.508000 0.460000
0.322000 0.508000 0.460000
0.435000 0.508000 0.460000
0.543392 0.507232 0.463840
0.653224 0.506272 0.468640
0.770544 0.506848 0.465760
0.886712 0.507808 0.460960
1.000000 0.508000 0.460000
0.096000 0.631000 0.460000
0.209000 0.631000 0.460000
0.322000 0.631000 0.460000
0.435000 0.631000 0.460000
0.548000 0.631000 0.460000
0.655816 0.630136 0.465760
0.766224 0.629056 0.472960
0.884408 0.629704 0.468640
1.000000 0.630784 0.461440
0.096000 0.754000 0.460000
0.209000 0.754000 0.460000
0.322000 0.754000 0.460000
0.435000 0.754000 0.460000
0.548000 0.754000 0.460000
0.661000 0.754000 0.460000
0.772464 0.753744 0.462560
0.885272 0.753424 0.465760
1.000000 0.753616 0.463840
0.096000 0.877000 0.460000
0.209000 0.877000 0.460000
0.322000 0.877000 0.460000
0.435000 0.877000 0.460000
0.548000 0.877000 0.460000
0.661000 0.877000 0.460000
0.774000 0.877000 0.460000
0.887000 0.877000 0.460000
1.000000 0.877000 0.460000
0.096000 1.000000 0.460000
0.209000 1.000000 0.460000
0.322000 1.000000 0.460000
0.435000 1.000000 0.460000
0.548000 1.000000 0.460000
0.661000 1.000000 0.460000
0.774000 1.000000 0.460000
0.887000 1.000000 0.460000
1.000000 1.000000 0.460000
0.096000 0.016000 0.575000
0.209000 0.016000 0.575000
0.322000 0.016000 0.575000
0.435000 0.016000 0.575000
0.548000 0.016000 0.575000
0.661000 0.016000 0.575000
0.774000 0.016000 0.575000
0.887000 0.016000 0.575000
1.000000 0.016000 0.575000
0.096000 0.139000 0.575000
0.209000 0.139000 0.575000
0.322000 0.139000 0.575000
0.435000 0.139000 0.575000
0.548000 0.139000 0.575000
0.661000 0.139000 0.575000
0.774000 0.139000 0.575000
0.887000 0.139000 0.575000
1.000000 0.139000 0.575000
0.096000 0.262000 0.575000
0.209000 0.262000 0.575000
0.322000 0.262000 0.575000
0.435000 0.262000 0.575000
0.548000 0.262000 0.575000
0.661000 0.262000 0.575000
0.774000 0.262000 0.575000
0.887000 0.262000 0.575000
1.000000 0.262000 0.575000
0.096000 0.385000 0.575000
0.209000 0.385000 0.575000
0.322000 0.385000 0.575000
0.435000 0.385000 0.575000
0.548000 0.385000 0.575000
0.661000 0.385000 0.575000
0.774000 0.385000 0.575000
0.887000 0.385000 0.575000
1.000000 0.385000 0.575000
0.096000 0.508000 0.575000
0.209000 0.508000 0.575000
0.322000 0.508000 0.575000
0.435000 0.508000 0.575000
0.547232 0.507872 0.575800
0.659704 0.507712 0.576800
0.773424 0.507808 0.576200
0.886952 0.507968 0.575200
1.000000 0.508000 0.575000
0.096000 0.631000 0.575000
0.209000 0.631000 0.575000
0.322000 0.631000 0.575000
0.435000 0.631000 0.575000
0.548000 0.631000 0.575000
0.657544 0.630424 0.579800
0.768816 0.629704 0.585800
0.885272 0.630136 0.582200
1.000000 0.630856 0.576200
0.096000 0.754000 0.575000
0.209000 0.754000 0.575000
0.322000 0.754000 0.575000
0.435000 0.754000 0.575000
0.548000 0.754000 0.575000
0.661000 0.754000 0.575000
0.770544 0.753424 0.582200
0.883112 0.752704 0.591200
1.000000 0.753136 0.585800
0.096000 0.877000 0.575000
0.209000 0.877000 0.575000
0.322000 0.877000 0.575000
0.435000 0.877000 0.575000
0.548000 0.877000 0.575000
0.661000 0.877000 0.575000
0.774000 0.877000 0.575000
0.886232 0.876872 0.578200
1.000000 0.876712 0.582200
0.096000 1.000000 0.575000
0.209000 1.000000 0.575000
0.322000 1.000000 0.575000
0.435000 1.000000 0.575000
0.548000 1.000000 0.575000
0.661000 1.000000 0.575000
0.774000 1.000000 0.575000
0.887000 1.000000 0.575000
1.000000 1.000000 0.575000
0.096000 0.016000 0.690000
0.209000 0.016000 0.690000
0.322000 0.016000 0.690000
0.435000 0.016000 0.690000
0.548000 0.016000 0.690000
0.661000 0.016000 0.690000
0.774000 0.016000 0.690000
0.887000 0.016000 0.690000
1.000000 0.016000 0.690000
0.096000 0.139000 0.690000
0.209000 0.139000 0.690000
0.322000 0.139000 0.690000
0.435000 0.139000 0.690000
0.548000 0.139000 0.690000
0.661000 0.139000 0.690000
0.774000 0.139000 0.690000
0.887000 0.139000 0.690000
1.000000 0.139000 0.690000
0.096000 0.262000 0.690000
0.209000 0.262000 0.690000
0.322000 0.262000 0.690000
0.435000 0.262000 0.690000
0.548000 0.262000 0.690000
0.661000 0.262000 0.690000
0.774000 0.262000 0.690000
0.887000 0.262000 0.690000
1.000000 0.262000 0.690000
0.096000 0.385000 0.690000
0.209000 0.385000 0.690000
0.322000 0.385000 0.690000
0.435000 0.385000 0.690000
0.548000 0.385000 0.690000
0.661000 0.385000 0.690000
0.774000 0.385000 0.690000
0.887000 0.385000 0.690000
1.000000 0.385000 0.690000
0.096000 0.508000 0.690000
0.209000 0.508000 0.690000
0.322000 0.508000 0.690000
0.435000 0.508000 0.690000
0.548000 0.508000 0.690000
0.661000 0.508000 0.690000
0.774000 0.508000 0.690000
0.887000 0.508000 0.690000
1.000000 0.508000 0.690000
0.096000 0.631000 0.690000
0.209000 0.631000 0.690000
0.322000 0.631000 0.690000
0.435000 0.631000 0.690000
0.548000 0.631000 0.690000
0.660424 0.630904 0.690960
0.773136 0.630784 0.692160
0.886712 0.630856 0.691440
1.000000 0.630976 0.690240
0.096000 0.754000 0.690000
0.209000 0.754000 0.690000
0.322000 0.754000 0.690000
0.435000 0.754000 0.690000
0.548000 0.754000 0.690000
0.661000 0.754000 0.690000
0.771696 0.753616 0.695760
0.884408 0.753136 0.702960
1.000000 0.753424 0.698640
0.096000 0.877000 0.690000
0.209000 0.877000 0.690000
0.322000 0.877000 0.690000
0.435000 0.877000 0.690000
0.548000 0.877000 0.690000
0.661000 0.877000 0.690000
0.774000 0.877000 0.690000
0.885272 0.876712 0.698640
1.000000 0.876352 0.709440
0.096000 1.000000 0.690000
0.209000 1.000000 0.690000
0.322000 1.000000 0.690000
0.435000 1.000000 0.690000
0.548000 1.000000 0.690000
0.661000 1.000000 0.690000
0.774000 1.000000 0.690000
0.887000 1.000000 0.690000
1.000000 1.000000 0.693840
0.096000 0.016000 0.805000
0.209000 0.016000 0.805000
0.322000 0.016000 0.805000
0.435000 0.016000 0.805000
0.548000 0.016000 0.805000
0.661000 0.016000 0.805000
0.774000 0.016000 0.805000
0.887000 0.016000 0.805000
1.000000 0.016000 0.805000
0.096000 0.139000 0.805000
0.209000 0.139000 0.805000
0.322000 0.139000 0.805000
0.435000 0.139000 0.805000
0.548000 0.139000 0.805000
0.661000 0.139000 0.805000
0.774000 0.139000 0.805000
0.887000 0.139000 0.805000
1.000000 0.139000 0.805000
0.096000 0.262000 0.805000
0.209000 0.262000 0.805000
0.322000 0.262000 0.805000
0.435000 0.262000 0.805000
0.548000 0.262000 0.805000
0.661000 0.262000 0.805000
0.774000 0.262000 0.805000
0.887000 0.262000 0.805000
1.000000 0.262000 0.805000
0.096000 0.385000 0.805000
0.209000 0.385000 0.805000
0.322000 0.385000 0.805000
0.435000 0.385000 0.805000
0.548000 0.385000 0.805000
0.661000 0.385000 0.805000
0.774000 0.385000 0.805000
0.887000 0.385000 0.805000
1.000000 0.385000 0.805000
0.096000 0.508000 0.805000
0.209000 0.508000 0.805000
0.322000 0.508000 0.805000
0.435000 0.508000 0.805000
0.548000 0.508000 0.805000
0.661000 0.508000 0.805000
0.774000 0.508000 0.805000
0.887000 0.508000 0.805000
1.000000 0.508000 0.805000
0.096000 0.631000 0.805000
0.209000 0.631000 0.805000
0.322000 0.631000 0.805000
0.435000 0.631000 0.805000
0.548000 0.631000 0.805000
0.661000 0.631000 0.805000
0.774000 0.631000 0.805000
0.887000 0.631000 0.805000
1.000000 0.631000 0.805000
0.096000 0.754000 0.805000
0.209000 0.754000 0.805000
0.322000 0.754000 0.805000
0.435000 0.754000 0.805000
0.548000 0.754000 0.805000
0.661000 0.754000 0.805000
0.773616 0.753936 0.806120
0.886568 0.753856 0.807520
1.000000 0.753904 0.806680
0.096000 0.877000 0.805000
0.209000 0.877000 0.805000
0.322000 0.877000 0.805000
0.435000 0.877000 0.805000
0.548000 0.877000 0.805000
0.661000 0.877000 0.805000
0.774000 0.877000 0.805000
0.885848 0.876808 0.811720
1.000000 0.876568 0.820120
0.096000 1.000000 0.805000
0.209000 1.000000 0.805000
0.322000 1.000000 0.805000
0.435000 1.000000 0.805000
0.548000 1.000000 0.805000
0.661000 1.000000 0.805000
0.774000 1.000000 0.805000
0.887000 1.000000 0.805000
1.000000 1.000000 0.815080
0.096000 0.016000 0.920000
0.209000 0.016000 0.920000
0.322000 0.016000 0.920000
0.435000 0.016000 0.920000
0.548000 0.016000 0.920000
0.661000 0.016000 0.920000
0.774000 0.016000 0.920000
0.887000 0.016000 0.920000
1.000000 0.016000 0.920000
0.096000 0.139000 0.920000
0.209000 0.139000 0.920000
0.322000 0.139000 0.920000
0.435000 0.139000 0.920000
0.548000 0.139000 0.920000
0.661000 0.139000 0.920000
0.774000 0.139000 0.920000
0.887000 0.139000 0.920000
1.000000 0.139000 0.920000
0.096000 0.262000 0.920000
0.209000 0.262000 0.920000
0.322000 0.262000 0.920000
0.435000 0.262000 0.920000
0.548000 0.262000 0.920000
0.661000 0.262000 0.920000
0.774000 0.262000 0.920000
0.887000 0.262000 0.920000
1.000000 0.262000 0.920000
0.096000 0.385000 0.920000
0.209000 0.385000 0.920000
0.322000 0.385000 0.920000
0.435000 0.385000 0.920000
0.548000 0.385000 0.920000
0.661000 0.385000 0.920000
0.774000 0.385000 0.920000
0.887000 0.385000 0.920000
1.000000 0.385000 0.920000
0.096000 0.508000 0.920000
0.209000 0.508000 0.920000
0.322000 0.508000 0.920000
0.435000 0.508000 0.920000
0.548000 0.508000 0.920000
0.661000 0.508000 0.920000
0.774000 0.508000 0.920000
0.887000 0.508000 0.920000
1.000000 0.508000 0.920000
0.096000 0.631000 0.920000
0.209000 0.631000 0.920000
0.322000 0.631000 0.920000
0.435000 0.631000 0.920000
0.548000 0.631000 0.920000
0.661000 0.631000 0.920000
0.774000 0.631000 0.920000
0.887000 0.631000 0.920000
1.000000 0.631000 0.920000
0.096000 0.754000 0.920000
0.209000 0.754000 0.920000
0.322000 0.754000 0.920000
0.435000 0.754000 0.920000
0.548000 0.754000 0.920000
0.661000 0.754000 0.920000
0.774000 0.754000 0.920000
0.887000 0.754000 0.920000
1.000000 0.754000 0.920000
0.096000 0.877000 0.920000
0.209000 0.877000 0.920000
0.322000 0.877000 0.920000
0.435000 0.877000 0.920000
0.548000 0.877000 0.920000
0.661000 0.877000 0.920000
0.774000 0.877000 0.920000
0.886808 0.876968 0.921280
1.000000 0.876928 0.922880
0.096000 1.000000 0.920000
0.209000 1.000000 0.920000
0.322000 1.000000 0.920000
0.435000 1.000000 0.920000
0.548000 1.000000 0.920000
0.661000 1.000000 0.920000
0.774000 1.000000 0.920000
0.887000 1.000000 0.920000
1.000000 1.000000 0.927680
