luts/warm_standard.cube
TITLE "warm_standard"
LUT_3D_SIZE 33
DOMAIN_MIN 0.0 0.0 0.0
DOMAIN_MAX 1.0 1.0 1.0
0.054240 0.009040 0.000000
0.082051 0.008740 0.000000
0.109975 0.008440 0.000000
0.138011 0.008140 0.000000
0.166160 0.007840 0.000000
0.195029 0.007660 0.000000
0.226305 0.007960 0.000000
0.257469 0.008260 0.000000
0.288520 0.008560 0.000000
0.319459 0.008860 0.000000
0.350285 0.009160 0.000000
0.380999 0.009460 0.000000
0.411600 0.009760 0.000000
0.441875 0.010000 0.000000
0.471250 0.010000 0.000000
0.500625 0.010000 0.000000
0.530000 0.010000 0.000000
0.559375 0.010000 0.000000
0.588750 0.010000 0.000000
0.618125 0.010000 0.000000
0.647500 0.010000 0.000000
0.676875 0.010000 0.000000
0.706250 0.010000 0.000000
0.735625 0.010000 0.000000
0.765000 0.010000 0.000000
0.794375 0.010000 0.000000
0.823750 0.010000 0.000000
0.853125 0.010000 0.000000
0.882500 0.010000 0.000000
0.911875 0.010000 0.000000
0.941250 0.010000 0.000000
0.970625 0.010000 0.000000
1.000000 0.010000 0.000000
0.055215 0.040165 0.000000
0.082632 0.039814 0.000000
0.110186 0.039463 0.000000
0.137875 0.039111 0.000000
0.165701 0.038760 0.000000
0.193662 0.038409 0.000000
0.222466 0.038198 0.000000
0.254070 0.038550 0.000000
0.285539 0.038901 0.000000
0.316871 0.039252 0.000000
0.348068 0.039603 0.000000
0.379128 0.039954 0.000000
0.410053 0.040305 0.000000
0.440842 0.040657 0.000000
0.471250 0.040938 0.000000
0.500625 0.040938 0.000000
0.530000 0.040938 0.000000
0.559375 0.040938 0.000000
0.588750 0.040938 0.000000
0.618125 0.040938 0.000000
0.647500 0.040938 0.000000
0.676875 0.040938 0.000000
0.706250 0.040938 0.000000
0.735625 0.040938 0.000000
0.765000 0.040938 0.000000
0.794375 0.040938 0.000000
0.823750 0.040938 0.000000
0.853125 0.040938 0.000000
0.882500 0.040938 0.000000
0.911875 0.040938 0.000000
0.941250 0.040938 0.000000
0.970625 0.040938 0.000000
1.000000 0.040938 0.000000
0.056940 0.071397 0.000000
0.083940 0.070998 0.000000
0.111100 0.070600 0.000000
0.138419 0.070202 0.000000
0.165898 0.069803 0.000000
0.193535 0.069405 0.000000
0.221332 0.069006 0.000000
0.250086 0.068767 0.000000
0.281995 0.069166 0.000000
0.313745 0.069564 0.000000
0.345335 0.069962 0.000000
0.376766 0.070361 0.000000
0.408037 0.070759 0.000000
0.439150 0.071158 0.000000
0.470102 0.071556 0.000000
0.500625 0.071875 0.000000
0.530000 0.071875 0.000000
0.559375 0.071875 0.000000
0.588750 0.071875 0.000000
0.618125 0.071875 0.000000
0.647500 0.071875 0.000000
0.676875 0.071875 0.000000
0.706250 0.071875 0.000000
0.735625 0.071875 0.000000
0.765000 0.071875 0.000000
0.794375 0.071875 0.000000
0.823750 0.071875 0.000000
0.853125 0.071875 0.000000
0.882500 0.071875 0.000000
0.911875 0.071875 0.000000
0.941250 0.071875 0.000000
0.970625 0.071875 0.000000
1.000000 0.071875 0.000000
0.059415 0.102724 0.000000
0.085975 0.102282 0.000000
0.112717 0.101841 0.000000
0.139643 0.101399 0.000000
0.166751 0.100957 0.000000
0.194042 0.100515 0.000000
0.221515 0.100073 0.000000
0.249172 0.099632 0.000000
0.277889 0.099366 0.000000
0.310079 0.099808 0.000000
0.342087 0.100250 0.000000
0.373911 0.100692 0.000000
0.405553 0.101134 0.000000
0.437012 0.101575 0.000000
0.468288 0.102017 0.000000
0.499382 0.102459 0.000000
0.530000 0.102813 0.000000
0.559375 0.102813 0.000000
0.588750 0.102813 0.000000
0.618125 0.102813 0.000000
0.647500 0.102813 0.000000
0.676875 0.102813 0.000000
0.706250 0.102813 0.000000
0.735625 0.102813 0.000000
0.765000 0.102813 0.000000
0.794375 0.102813 0.000000
0.823750 0.102813 0.000000
0.853125 0.102813 0.000000
0.882500 0.102813 0.000000
0.911875 0.102813 0.000000
0.941250 0.102813 0.000000
0.970625 0.102813 0.000000
1.000000 0.102813 0.000000
0.060000 0.133750 0.000000
0.088852 0.133671 0.000000
0.115712 0.133277 0.000000
0.142742 0.132884 0.000000
0.169940 0.132490 0.000000
0.197307 0.132096 0.000000
0.224843 0.131703 0.000000
0.252547 0.131309 0.000000
0.280420 0.130915 0.000000
0.309238 0.130679 0.000000
0.341127 0.131073 0.000000
0.372848 0.131466 0.000000
0.404400 0.131860 0.000000
0.435783 0.132254 0.000000
0.466998 0.132648 0.000000
0.498043 0.133041 0.000000
0.528920 0.133435 0.000000
0.559375 0.133750 0.000000
0.588750 0.133750 0.000000
0.618125 0.133750 0.000000
0.647500 0.133750 0.000000
0.676875 0.133750 0.000000
0.706250 0.133750 0.000000
0.735625 0.133750 0.000000
0.765000 0.133750 0.000000
0.794375 0.133750 0.000000
0.823750 0.133750 0.000000
0.853125 0.133750 0.000000
0.882500 0.133750 0.000000
0.911875 0.133750 0.000000
0.941250 0.133750 0.000000
0.970625 0.133750 0.000000
1.000000 0.133750 0.000000
0.060000 0.164687 0.000000
0.089375 0.164687 0.000000
0.118314 0.164622 0.000000
0.145597 0.164295 0.000000
0.173024 0.163968 0.000000
0.200597 0.163641 0.000000
0.228316 0.163314 0.000000
0.256180 0.162987 0.000000
0.284189 0.162660 0.000000
0.312343 0.162333 0.000000
0.341282 0.162137 0.000000
0.372750 0.162464 0.000000
0.404072 0.162791 0.000000
0.435249 0.163118 0.000000
0.466280 0.163445 0.000000
0.497167 0.163772 0.000000
0.527907 0.164099 0.000000
0.558503 0.164426 0.000000
0.588750 0.164687 0.000000
0.618125 0.164687 0.000000
0.647500 0.164687 0.000000
0.676875 0.164687 0.000000
0.706250 0.164687 0.000000
0.735625 0.164687 0.000000
0.765000 0.164687 0.000000
0.794375 0.164687 0.000000
0.823750 0.164687 0.000000
0.853125 0.164687 0.000000
0.882500 0.164687 0.000000
0.911875 0.164687 0.000000
0.941250 0.164687 0.000000
0.970625 0.164687 0.000000
1.000000 0.164687 0.000000
0.060000 0.195625 0.000000
0.089375 0.195625 0.000000
0.118750 0.195625 0.000000
0.147772 0.195572 0.000000
0.175453 0.195308 0.000000
0.203255 0.195044 0.000000
0.231180 0.194780 0.000000
0.259227 0.194516 0.000000
0.287395 0.194252 0.000000
0.315685 0.193988 0.000000
0.344098 0.193724 0.000000
0.373143 0.193565 0.000000
0.404212 0.193829 0.000000
0.435160 0.194093 0.000000
0.465985 0.194357 0.000000
0.496688 0.194622 0.000000
0.527270 0.194886 0.000000
0.557730 0.195150 0.000000
0.588067 0.195414 0.000000
0.618125 0.195625 0.000000
0.647500 0.195625 0.000000
0.676875 0.195625 0.000000
0.706250 0.195625 0.000000
0.735625 0.195625 0.000000
0.765000 0.195625 0.000000
0.794375 0.195625 0.000000
0.823750 0.195625 0.000000
0.853125 0.195625 0.000000
0.882500 0.195625 0.000000
0.911875 0.195625 0.000000
0.941250 0.195625 0.000000
0.970625 0.195625 0.000000
1.000000 0.195625 0.000000
0.060000 0.226562 0.000000
0.089375 0.226562 0.000000
0.118750 0.226562 0.000000
0.148125 0.226562 0.000000
0.177224 0.226521 0.000000
0.205280 0.226316 0.000000
0.233435 0.226111 0.000000
0.261688 0.225906 0.000000
0.290039 0.225701 0.000000
0.318488 0.225496 0.000000
0.347037 0.225291 0.000000
0.375683 0.225086 0.000000
0.404822 0.224963 0.000000
0.435516 0.225168 0.000000
0.466112 0.225373 0.000000
0.496609 0.225578 0.000000
0.527007 0.225783 0.000000
0.557308 0.225988 0.000000
0.587510 0.226193 0.000000
0.617613 0.226398 0.000000
0.647500 0.226562 0.000000
0.676875 0.226562 0.000000
0.706250 0.226562 0.000000
0.735625 0.226562 0.000000
0.765000 0.226562 0.000000
0.794375 0.226562 0.000000
0.823750 0.226562 0.000000
0.853125 0.226562 0.000000
0.882500 0.226562 0.000000
0.911875 0.226562 0.000000
0.941250 0.226562 0.000000
0.970625 0.226562 0.000000
1.000000 0.226562 0.000000
0.060000 0.257500 0.000000
0.089375 0.257500 0.000000
0.118750 0.257500 0.000000
0.148125 0.257500 0.000000
0.177500 0.257500 0.000000
0.206673 0.257470 0.000000
0.235080 0.257320 0.000000
0.263562 0.257170 0.000000
0.292120 0.257020 0.000000
0.320752 0.256870 0.000000
0.349460 0.256720 0.000000
0.378242 0.256570 0.000000
0.407100 0.256420 0.000000
0.436318 0.256330 0.000000
0.466660 0.256480 0.000000
0.496928 0.256630 0.000000
0.527120 0.256780 0.000000
0.557238 0.256930 0.000000
0.587280 0.257080 0.000000
0.617247 0.257230 0.000000
0.647140 0.257380 0.000000
0.676875 0.257500 0.000000
0.706250 0.257500 0.000000
0.735625 0.257500 0.000000
0.765000 0.257500 0.000000
0.794375 0.257500 0.000000
0.823750 0.257500 0.000000
0.853125 0.257500 0.000000
0.882500 0.257500 0.000000
0.911875 0.257500 0.000000
0.941250 0.257500 0.000000
0.970625 0.257500 0.000000
1.000000 0.257500 0.000000
0.060000 0.288438 0.000000
0.089375 0.288438 0.000000
0.118750 0.288438 0.000000
0.148125 0.288438 0.000000
0.177500 0.288438 0.000000
0.206875 0.288438 0.000000
0.236116 0.288418 0.000000
0.264852 0.288319 0.000000
0.293639 0.288220 0.000000
0.322477 0.288121 0.000000
0.351368 0.288022 0.000000
0.380310 0.287924 0.000000
0.409303 0.287825 0.000000
0.438348 0.287726 0.000000
0.467630 0.287667 0.000000
0.497645 0.287765 0.000000
0.527608 0.287864 0.000000
0.557519 0.287963 0.000000
0.587378 0.288062 0.000000
0.617187 0.288161 0.000000
0.646943 0.288260 0.000000
0.676648 0.288358 0.000000
0.706250 0.288438 0.000000
0.735625 0.288438 0.000000
0.765000 0.288438 0.000000
0.794375 0.288438 0.000000
0.823750 0.288438 0.000000
0.853125 0.288438 0.000000
0.882500 0.288438 0.000000
0.911875 0.288438 0.000000
0.941250 0.288438 0.000000
0.970625 0.288438 0.000000
1.000000 0.288438 0.000000
0.060000 0.319375 0.000000
0.089375 0.319375 0.000000
0.118750 0.319375 0.000000
0.148125 0.319375 0.000000
0.177500 0.319375 0.000000
0.206875 0.319375 0.000000
0.236250 0.319375 0.000000
0.265555 0.319365 0.000000
0.294595 0.319313 0.000000
0.323663 0.319262 0.000000
0.352760 0.319210 0.000000
0.381885 0.319158 0.000000
0.411038 0.319107 0.000000
0.440218 0.319055 0.000000
0.469427 0.319004 0.000000
0.498760 0.318973 0.000000
0.528470 0.319024 0.000000
0.558152 0.319076 0.000000
0.587805 0.319128 0.000000
0.617430 0.319179 0.000000
0.647027 0.319231 0.000000
0.676597 0.319282 0.000000
0.706137 0.319334 0.000000
0.735625 0.319375 0.000000
0.765000 0.319375 0.000000
0.794375 0.319375 0.000000
0.823750 0.319375 0.000000
0.853125 0.319375 0.000000
0.882500 0.319375 0.000000
0.911875 0.319375 0.000000
0.941250 0.319375 0.000000
0.970625 0.319375 0.000000
1.000000 0.319375 0.000000
0.060000 0.350313 0.000000
0.089375 0.350313 0.000000
0.118750 0.350313 0.000000
0.148125 0.350313 0.000000
0.177500 0.350313 0.000000
0.206875 0.350313 0.000000
0.236250 0.350313 0.000000
0.265625 0.350313 0.000000
0.294989 0.350311 0.000000
0.324310 0.350303 0.000000
0.353637 0.350294 0.000000
0.382968 0.350286 0.000000
0.412303 0.350278 0.000000
0.441643 0.350270 0.000000
0.470988 0.350262 0.000000
0.500338 0.350253 0.000000
0.529707 0.350249 0.000000
0.559136 0.350257 0.000000
0.588560 0.350265 0.000000
0.617979 0.350273 0.000000
0.647393 0.350281 0.000000
0.676803 0.350290 0.000000
0.706208 0.350298 0.000000
0.735608 0.350306 0.000000
0.765000 0.350313 0.000000
0.794375 0.350313 0.000000
0.823750 0.350313 0.000000
0.853125 0.350313 0.000000
0.882500 0.350313 0.000000
0.911875 0.350313 0.000000
0.941250 0.350313 0.000000
0.970625 0.350313 0.000000
1.000000 0.350313 0.000000
0.060000 0.381250 0.000000
0.089375 0.381250 0.000000
0.118750 0.381250 0.000000
0.148125 0.381250 0.000000
0.177500 0.381250 0.000000
0.206875 0.381250 0.000000
0.236250 0.381250 0.000000
0.265625 0.381250 0.000000
0.295000 0.381250 0.000000
0.324375 0.381250 0.000000
0.353750 0.381250 0.000000
0.383125 0.381250 0.000000
0.412500 0.381250 0.000000
0.441875 0.381250 0.000000
0.471250 0.381250 0.000000
0.500625 0.381250 0.000000
0.530000 0.381250 0.000000
0.559375 0.381250 0.000000
0.588750 0.381250 0.000000
0.618125 0.381250 0.000000
0.647500 0.381250 0.000000
0.676875 0.381250 0.000000
0.706250 0.381250 0.000000
0.735625 0.381250 0.000000
0.765000 0.381250 0.000000
0.794375 0.381250 0.000000
0.823750 0.381250 0.000000
0.853125 0.381250 0.000000
0.882500 0.381250 0.000000
0.911875 0.381250 0.000000
0.941250 0.381250 0.000000
0.970625 0.381250 0.000000
1.000000 0.381250 0.000000
0.060000 0.412187 0.000000
0.089375 0.412187 0.000000
0.118750 0.412187 0.000000
0.148125 0.412187 0.000000
0.177500 0.412187 0.000000
0.206875 0.412187 0.000000
0.236250 0.412187 0.000000
0.265625 0.412187 0.000000
0.295000 0.412187 0.000000
0.324375 0.412187 0.000000
0.353750 0.412187 0.000000
0.383125 0.412187 0.000000
0.412500 0.412187 0.000000
0.441875 0.412187 0.000000
0.471250 0.412187 0.000000
0.500625 0.412187 0.000000
0.530000 0.412187 0.000000
0.559375 0.412187 0.000000
0.588750 0.412187 0.000000
0.618125 0.412187 0.000000
0.647500 0.412187 0.000000
0.676875 0.412187 0.000000
0.706250 0.412187 0.000000
0.735625 0.412187 0.000000
0.765000 0.412187 0.000000
0.794375 0.412187 0.000000
0.823750 0.412187 0.000000
0.853125 0.412187 0.000000
0.882500 0.412187 0.000000
0.911875 0.412187 0.000000
0.941250 0.412187 0.000000
0.970625 0.412187 0.000000
1.000000 0.412187 0.000000
0.060000 0.443125 0.000000
0.089375 0.443125 0.000000
0.118750 0.443125 0.000000
0.148125 0.443125 0.000000
0.177500 0.443125 0.000000
0.206875 0.443125 0.000000
0.236250 0.443125 0.000000
0.265625 0.443125 0.000000
0.295000 0.443125 0.000000
0.324375 0.443125 0.000000
0.353750 0.443125 0.000000
0.383125 0.443125 0.000000
0.412500 0.443125 0.000000
0.441875 0.443125 0.000000
0.471250 0.443125 0.000000
0.500625 0.443125 0.000000
0.530000 0.443125 0.000000
0.559375 0.443125 0.000000
0.588750 0.443125 0.000000
0.618125 0.443125 0.000000
0.647500 0.443125 0.000000
0.676875 0.443125 0.000000
0.706250 0.443125 0.000000
0.735625 0.443125 0.000000
0.765000 0.443125 0.000000
0.794375 0.443125 0.000000
0.823750 0.443125 0.000000
0.853125 0.443125 0.000000
0.882500 0.443125 0.000000
0.911875 0.443125 0.000000
0.941250 0.443125 0.000000
0.970625 0.443125 0.000000
1.000000 0.443125 0.000000
0.060000 0.474062 0.000000
0.089375 0.474062 0.000000
0.118750 0.474062 0.000000
0.148125 0.474062 0.000000
0.177500 0.474062 0.000000
0.206875 0.474062 0.000000
0.236250 0.474062 0.000000
0.265625 0.474062 0.000000
0.295000 0.474062 0.000000
0.324375 0.474062 0.000000
0.353750 0.474062 0.000000
0.383125 0.474062 0.000000
0.412500 0.474062 0.000000
0.441875 0.474062 0.000000
0.471250 0.474062 0.000000
0.500625 0.474062 0.000000
0.530000 0.474062 0.000000
0.559375 0.474062 0.000000
0.588750 0.474062 0.000000
0.618125 0.474062 0.000000
0.647500 0.474062 0.000000
0.676875 0.474062 0.000000
0.706250 0.474062 0.000000
0.735625 0.474062 0.000000
0.765000 0.474062 0.000000
0.794375 0.474062 0.000000
0.823750 0.474062 0.000000
0.853125 0.474062 0.000000
0.882500 0.474062 0.000000
0.911875 0.474062 0.000000
0.941250 0.474062 0.000000
0.970625 0.474062 0.000000
1.000000 0.474062 0.000000
0.060000 0.505000 0.000000
0.089375 0.505000 0.000000
0.118750 0.505000 0.000000
0.148125 0.505000 0.000000
0.177500 0.505000 0.000000
0.206875 0.505000 0.000000
0.236250 0.505000 0.000000
0.265625 0.505000 0.000000
0.295000 0.505000 0.000000
0.324375 0.505000 0.000000
0.353750 0.505000 0.000000
0.383125 0.505000 0.000000
0.412500 0.505000 0.000000
0.441875 0.505000 0.000000
0.471250 0.505000 0.000000
0.500625 0.505000 0.000000
0.530000 0.505000 0.000000
0.559375 0.505000 0.000000
0.588750 0.505000 0.000000
0.618125 0.505000 0.000000
0.647500 0.505000 0.000000
0.676875 0.505000 0.000000
0.706250 0.505000 0.000000
0.735625 0.505000 0.000000
0.765000 0.505000 0.000000
0.794375 0.505000 0.000000
0.823750 0.505000 0.000000
0.853125 0.505000 0.000000
0.882500 0.505000 0.000000
0.911875 0.505000 0.000000
0.941250 0.505000 0.000000
0.970625 0.505000 0.000000
1.000000 0.505000 0.000000
0.060000 0.535937 0.000000
0.089375 0.535937 0.000000
0.118750 0.535937 0.000000
0.148125 0.535937 0.000000
0.177500 0.535937 0.000000
0.206875 0.535937 0.000000
0.236250 0.535937 0.000000
0.265625 0.535937 0.000000
0.295000 0.535937 0.000000
0.324375 0.535937 0.000000
0.353750 0.535937 0.000000
0.383125 0.535937 0.000000
0.412500 0.535937 0.000000
0.441875 0.535937 0.000000
0.471250 0.535937 0.000000
0.500625 0.535937 0.000000
0.530000 0.535937 0.000000
0.559375 0.535937 0.000000
0.588750 0.535937 0.000000
0.618125 0.535937 0.000000
0.647500 0.535937 0.000000
0.676875 0.535937 0.000000
0.706250 0.535937 0.000000
0.735625 0.535937 0.000000
0.765000 0.535937 0.000000
0.794375 0.535937 0.000000
0.823750 0.535937 0.000000
0.853125 0.535937 0.000000
0.882500 0.535937 0.000000
0.911875 0.535937 0.000000
0.941250 0.535937 0.000000
0.970625 0.535937 0.000000
1.000000 0.535937 0.000000
0.060000 0.566875 0.000000
0.089375 0.566875 0.000000
0.118750 0.566875 0.000000
0.148125 0.566875 0.000000
0.177500 0.566875 0.000000
0.206875 0.566875 0.000000
0.236250 0.566875 0.000000
0.265625 0.566875 0.000000
0.295000 0.566875 0.000000
0.324375 0.566875 0.000000
0.353750 0.566875 0.000000
0.383125 0.566875 0.000000
0.412500 0.566875 0.000000
0.441875 0.566875 0.000000
0.471250 0.566875 0.000000
0.500625 0.566875 0.000000
0.530000 0.566875 0.000000
0.559375 0.566875 0.000000
0.588750 0.566875 0.000000
0.618125 0.566875 0.000000
0.647500 0.566875 0.000000
0.676875 0.566875 0.000000
0.706250 0.566875 0.000000
0.735625 0.566875 0.000000
0.765000 0.566875 0.000000
0.794375 0.566875 0.000000
0.823750 0.566875 0.000000
0.853125 0.566875 0.000000
0.882500 0.566875 0.000000
0.911875 0.566875 0.000000
0.941250 0.566875 0.000000
0.970625 0.566875 0.000000
1.000000 0.566875 0.000000
0.060000 0.597812 0.000000
0.089375 0.597812 0.000000
0.118750 0.597812 0.000000
0.148125 0.597812 0.000000
0.177500 0.597812 0.000000
0.206875 0.597812 0.000000
0.236250 0.597812 0.000000
0.265625 0.597812 0.000000
0.295000 0.597812 0.000000
0.324375 0.597812 0.000000
0.353750 0.597812 0.000000
0.383125 0.597812 0.000000
0.412500 0.597812 0.000000
0.441875 0.597812 0.000000
0.471250 0.597812 0.000000
0.500625 0.597812 0.000000
0.530000 0.597812 0.000000
0.559375 0.597812 0.000000
0.588750 0.597812 0.000000
0.618125 0.597812 0.000000
0.647500 0.597812 0.000000
0.676875 0.597812 0.000000
0.706250 0.597812 0.000000
0.735625 0.597812 0.000000
0.765000 0.597812 0.000000
0.794375 0.597812 0.000000
0.823750 0.597812 0.000000
0.853125 0.597812 0.000000
0.882500 0.597812 0.000000
0.911875 0.597812 0.000000
0.941250 0.597812 0.000000
0.970625 0.597812 0.000000
1.000000 0.597812 0.000000
0.060000 0.628750 0.000000
0.089375 0.628750 0.000000
0.118750 0.628750 0.000000
0.148125 0.628750 0.000000
0.177500 0.628750 0.000000
0.206875 0.628750 0.000000
0.236250 0.628750 0.000000
0.265625 0.628750 0.000000
0.295000 0.628750 0.000000
0.324375 0.628750 0.000000
0.353750 0.628750 0.000000
0.383125 0.628750 0.000000
0.412500 0.628750 0.000000
0.441875 0.628750 0.000000
0.471250 0.628750 0.000000
0.500625 0.628750 0.000000
0.530000 0.628750 0.000000
0.559375 0.628750 0.000000
0.588750 0.628750 0.000000
0.618125 0.628750 0.000000
0.647500 0.628750 0.000000
0.676875 0.628750 0.000000
0.706250 0.628750 0.000000
0.735625 0.628750 0.000000
0.765000 0.628750 0.000000
0.794375 0.628750 0.000000
0.823750 0.628750 0.000000
0.853125 0.628750 0.000000
0.882500 0.628750 0.000000
0.911875 0.628750 0.000000
0.941250 0.628750 0.000000
0.970625 0.628750 0.000000
1.000000 0.628750 0.000000
0.060000 0.659687 0.000000
0.089375 0.659687 0.000000
0.118750 0.659687 0.000000
0.148125 0.659687 0.000000
0.177500 0.659687 0.000000
0.206875 0.659687 0.000000
0.236250 0.659687 0.000000
0.265625 0.659687 0.000000
0.295000 0.659687 0.000000
0.324375 0.659687 0.000000
0.353750 0.659687 0.000000
0.383125 0.659687 0.000000
0.412500 0.659687 0.000000
0.441875 0.659687 0.000000
0.471250 0.659687 0.000000
0.500625 0.659687 0.000000
0.530000 0.659687 0.000000
0.559375 0.659687 0.000000
0.588750 0.659687 0.000000
0.618125 0.659687 0.000000
0.647500 0.659687 0.000000
0.676875 0.659687 0.000000
0.706250 0.659687 0.000000
0.735625 0.659687 0.000000
0.765000 0.659687 0.000000
0.794375 0.659687 0.000000
0.823750 0.659687 0.000000
0.853125 0.659687 0.000000
0.882500 0.659687 0.000000
0.911875 0.659687 0.000000
0.941250 0.659687 0.000000
0.970625 0.659687 0.000000
1.000000 0.659687 0.000000
0.060000 0.690625 0.000000
0.089375 0.690625 0.000000
0.118750 0.690625 0.000000
0.148125 0.690625 0.000000
0.177500 0.690625 0.000000
0.206875 0.690625 0.000000
0.236250 0.690625 0.000000
0.265625 0.690625 0.000000
0.295000 0.690625 0.000000
0.324375 0.690625 0.000000
0.353750 0.690625 0.000000
0.383125 0.690625 0.000000
0.412500 0.690625 0.000000
0.441875 0.690625 0.000000
0.471250 0.690625 0.000000
0.500625 0.690625 0.000000
0.530000 0.690625 0.000000
0.559375 0.690625 0.000000
0.588750 0.690625 0.000000
0.618125 0.690625 0.000000
0.647500 0.690625 0.000000
0.676875 0.690625 0.000000
0.706250 0.690625 0.000000
0.735625 0.690625 0.000000
0.765000 0.690625 0.000000
0.794375 0.690625 0.000000
0.823750 0.690625 0.000000
0.853125 0.690625 0.000000
0.882500 0.690625 0.000000
0.911875 0.690625 0.000000
0.941250 0.690625 0.000000
0.970625 0.690625 0.000000
1.000000 0.690625 0.000000
0.060000 0.721562 0.000000
0.089375 0.721562 0.000000
0.118750 0.721562 0.000000
0.148125 0.721562 0.000000
0.177500 0.721562 0.000000
0.206875 0.721562 0.000000
0.236250 0.721562 0.000000
0.265625 0.721562 0.000000
0.295000 0.721562 0.000000
0.324375 0.721562 0.000000
0.353750 0.721562 0.000000
0.383125 0.721562 0.000000
0.412500 0.721562 0.000000
0.441875 0.721562 0.000000
0.471250 0.721562 0.000000
0.500625 0.721562 0.000000
0.530000 0.721562 0.000000
0.559375 0.721562 0.000000
0.588750 0.721562 0.000000
0.618125 0.721562 0.000000
0.647500 0.721562 0.000000
0.676875 0.721562 0.000000
0.706250 0.721562 0.000000
0.735625 0.721562 0.000000
0.765000 0.721562 0.000000
0.794375 0.721562 0.000000
0.823750 0.721562 0.000000
0.853125 0.721562 0.000000
0.882500 0.721562 0.000000
0.911875 0.721562 0.000000
0.941250 0.721562 0.000000
0.970625 0.721562 0.000000
1.000000 0.721562 0.000000
0.060000 0.752500 0.000000
0.089375 0.752500 0.000000
0.118750 0.752500 0.000000
0.148125 0.752500 0.000000
0.177500 0.752500 0.000000
0.206875 0.752500 0.000000
0.236250 0.752500 0.000000
0.265625 0.752500 0.000000
0.295000 0.752500 0.000000
0.324375 0.752500 0.000000
0.353750 0.752500 0.000000
0.383125 0.752500 0.000000
0.412500 0.752500 0.000000
0.441875 0.752500 0.000000
0.471250 0.752500 0.000000
0.500625 0.752500 0.000000
0.530000 0.752500 0.000000
0.559375 0.752500 0.000000
0.588750 0.752500 0.000000
0.618125 0.752500 0.000000
0.647500 0.752500 0.000000
0.676875 0.752500 0.000000
0.706250 0.752500 0.000000
0.735625 0.752500 0.000000
0.765000 0.752500 0.000000
0.794375 0.752500 0.000000
0.823750 0.752500 0.000000
0.853125 0.752500 0.000000
0.882500 0.752500 0.000000
0.911875 0.752500 0.000000
0.941250 0.752500 0.000000
0.970625 0.752500 0.000000
1.000000 0.752500 0.000000
0.060000 0.783438 0.000000
0.089375 0.783438 0.000000
0.118750 0.783438 0.000000
0.148125 0.783438 0.000000
0.177500 0.783438 0.000000
0.206875 0.783438 0.000000
0.236250 0.783438 0.000000
0.265625 0.783438 0.000000
0.295000 0.783438 0.000000
0.324375 0.783438 0.000000
0.353750 0.783438 0.000000
0.383125 0.783438 0.000000
0.412500 0.783438 0.000000
0.441875 0.783438 0.000000
0.471250 0.783438 0.000000
0.500625 0.783438 0.000000
0.530000 0.783438 0.000000
0.559375 0.783438 0.000000
0.588750 0.783438 0.000000
0.618125 0.783438 0.000000
0.647500 0.783438 0.000000
0.676875 0.783438 0.000000
0.706250 0.783438 0.000000
0.735625 0.783438 0.000000
0.765000 0.783438 0.000000
0.794375 0.783438 0.000000
0.823750 0.783438 0.000000
0.853125 0.783438 0.000000
0.882500 0.783438 0.000000
0.911875 0.783438 0.000000
0.941250 0.783438 0.000000
0.970625 0.783438 0.000000
1.000000 0.783438 0.000000
0.060000 0.814375 0.000000
0.089375 0.814375 0.000000
0.118750 0.814375 0.000000
0.148125 0.814375 0.000000
0.177500 0.814375 0.000000
0.206875 0.814375 0.000000
0.236250 0.814375 0.000000
0.265625 0.814375 0.000000
0.295000 0.814375 0.000000
0.324375 0.814375 0.000000
0.353750 0.814375 0.000000
0.383125 0.814375 0.000000
0.412500 0.814375 0.000000
0.441875 0.814375 0.000000
0.471250 0.814375 0.000000
0.500625 0.814375 0.000000
0.530000 0.814375 0.000000
0.559375 0.814375 0.000000
0.588750 0.814375 0.000000
0.618125 0.814375 0.000000
0.647500 0.814375 0.000000
0.676875 0.814375 0.000000
0.706250 0.814375 0.000000
0.735625 0.814375 0.000000
0.765000 0.814375 0.000000
0.794375 0.814375 0.000000
0.823750 0.814375 0.000000
