luts/warm_standard.cube
TITLE "warm_standard"
LUT_3D_SIZE 9
DOMAIN_MIN 0.0 0.0 0.0
DOMAIN_MAX 1.0 1.0 1.0
0.054240 0.009040 0.000000
0.166160 0.007840 0.000000
0.288520 0.008560 0.000000
0.411600 0.009760 0.000000
0.530000 0.010000 0.000000
0.647500 0.010000 0.000000
0.765000 0.010000 0.000000
0.882500 0.010000 0.000000
1.000000 0.010000 0.000000
0.060000 0.133750 0.000000
0.169940 0.132490 0.000000
0.280420 0.130915 0.000000
0.404400 0.131860 0.000000
0.528920 0.133435 0.000000
0.647500 0.133750 0.000000
0.765000 0.133750 0.000000
0.882500 0.133750 0.000000
1.000000 0.133750 0.000000
0.060000 0.257500 0.000000
0.177500 0.257500 0.000000
0.292120 0.257020 0.000000
0.407100 0.256420 0.000000
0.527120 0.256780 0.000000
0.647140 0.257380 0.000000
0.765000 0.257500 0.000000
0.882500 0.257500 0.000000
1.000000 0.257500 0.000000
0.060000 0.381250 0.000000
0.177500 0.381250 0.000000
0.295000 0.381250 0.000000
0.412500 0.381250 0.000000
0.530000 0.381250 0.000000
0.647500 0.381250 0.000000
0.765000 0.381250 0.000000
0.882500 0.381250 0.000000
1.000000 0.381250 0.000000
0.060000 0.505000 0.000000
0.177500 0.505000 0.000000
0.295000 0.505000 0.000000
0.412500 0.505000 0.000000
0.530000 0.505000 0.000000
0.647500 0.505000 0.000000
0.765000 0.505000 0.000000
0.882500 0.505000 0.000000
1.000000 0.505000 0.000000
0.060000 0.628750 0.000000
0.177500 0.628750 0.000000
0.295000 0.628750 0.000000
0.412500 0.628750 0.000000
0.530000 0.628750 0.000000
0.647500 0.628750 0.000000
0.765000 0.628750 0.000000
0.882500 0.628750 0.000000
1.000000 0.628750 0.000000
0.060000 0.752500 0.000000
0.177500 0.752500 0.000000
0.295000 0.752500 0.000000
0.412500 0.752500 0.000000
0.530000 0.752500 0.000000
0.647500 0.752500 0.000000
0.765000 0.752500 0.000000
0.882500 0.752500 0.000000
1.000000 0.752500 0.000000
0.060000 0.876250 0.000000
0.177500 0.876250 0.000000
0.295000 0.876250 0.000000
0.412500 0.876250 0.000000
0.530000 0.876250 0.000000
0.647500 0.876250 0.000000
0.765000 0.876250 0.000000
0.882500 0.876250 0.000000
1.000000 0.876250 0.000000
0.060000 1.000000 0.000000
0.177500 1.000000 0.000000
0.295000 1.000000 0.000000
0.412500 1.000000 0.000000
0.530000 1.000000 0.000000
0.647500 1.000000 0.000000
0.765000 1.000000 0.000000
0.882500 1.000000 0.000000
1.000000 1.000000 0.000000
0.059040 0.009840 0.118850
0.175610 0.009640 0.118975
0.293920 0.009760 0.118900
0.412350 0.009960 0.118775
0.530000 0.010000 0.118750
0.647500 0.010000 0.118750
0.765000 0.010000 0.118750
0.882500 0.010000 0.118750
1.000000 0.010000 0.118750
0.060000 0.133750 0.118750
0.172460 0.132910 0.119350
0.285280 0.131860 0.120100
0.407100 0.132490 0.119650
0.529280 0.133540 0.118900
0.647500 0.133750 0.118750
0.765000 0.133750 0.118750
0.882500 0.133750 0.118750
1.000000 0.133750 0.118750
0.060000 0.257500 0.118750
0.177500 0.257500 0.118750
0.288520 0.256420 0.119650
0.400350 0.255070 0.120775
0.523520 0.255880 0.120100
0.646690 0.257230 0.118975
0.765000 0.257500 0.118750
0.882500 0.257500 0.118750
1.000000 0.257500 0.118750
0.060000 0.381250 0.118750
0.177500 0.381250 0.118750
0.295000 0.381250 0.118750
0.410100 0.380850 0.119150
0.525680 0.380350 0.119650
0.645340 0.380650 0.119350
0.764760 0.381150 0.118850
0.882500 0.381250 0.118750
1.000000 0.381250 0.118750
0.060000 0.505000 0.118750
0.177500 0.505000 0.118750
0.295000 0.505000 0.118750
0.412500 0.505000 0.118750
0.530000 0.505000 0.118750
0.647500 0.505000 0.118750
0.765000 0.505000 0.118750
0.882500 0.505000 0.118750
1.000000 0.505000 0.118750
0.060000 0.628750 0.118750
0.177500 0.628750 0.118750
0.295000 0.628750 0.118750
0.412500 0.628750 0.118750
0.530000 0.628750 0.118750
0.647500 0.628750 0.118750
0.765000 0.628750 0.118750
0.882500 0.628750 0.118750
1.000000 0.628750 0.118750
0.060000 0.752500 0.118750
0.177500 0.752500 0.118750
0.295000 0.752500 0.118750
0.412500 0.752500 0.118750
0.530000 0.752500 0.118750
0.647500 0.752500 0.118750
0.765000 0.752500 0.118750
0.882500 0.752500 0.118750
1.000000 0.752500 0.118750
0.060000 0.876250 0.118750
0.177500 0.876250 0.118750
0.295000 0.876250 0.118750
0.412500 0.876250 0.118750
0.530000 0.876250 0.118750
0.647500 0.876250 0.118750
0.765000 0.876250 0.118750
0.882500 0.876250 0.118750
1.000000 0.876250 0.118750
0.060000 1.000000 0.118750
0.177500 1.000000 0.118750
0.295000 1.000000 0.118750
0.412500 1.000000 0.118750
0.530000 1.000000 0.118750
0.647500 1.000000 0.118750
0.765000 1.000000 0.118750
0.882500 1.000000 0.118750
1.000000 1.000000 0.118750
0.060000 0.010000 0.237500
0.177500 0.010000 0.237500
0.295000 0.010000 0.237500
0.412500 0.010000 0.237500
0.530000 0.010000 0.237500
0.647500 0.010000 0.237500
0.765000 0.010000 0.237500
0.882500 0.010000 0.237500
1.000000 0.010000 0.237500
0.060000 0.133750 0.237500
0.176660 0.133610 0.237700
0.293380 0.133435 0.237950
0.411600 0.133540 0.237800
0.529880 0.133715 0.237550
0.647500 0.133750 0.237500
0.765000 0.133750 0.237500
0.882500 0.133750 0.237500
1.000000 0.133750 0.237500
0.060000 0.257500 0.237500
0.177500 0.257500 0.237500
0.290680 0.256780 0.238700
0.404400 0.255880 0.240200
0.525680 0.256420 0.239300
0.646960 0.257320 0.237800
0.765000 0.257500 0.237500
0.882500 0.257500 0.237500
1.000000 0.257500 0.237500
0.060000 0.381250 0.237500
0.177500 0.381250 0.237500
0.295000 0.381250 0.237500
0.407100 0.380350 0.239300
0.520280 0.379225 0.241550
0.642640 0.379900 0.240200
0.764460 0.381025 0.237950
0.882500 0.381250 0.237500
1.000000 0.381250 0.237500
0.060000 0.505000 0.237500
0.177500 0.505000 0.237500
0.295000 0.505000 0.237500
0.412500 0.505000 0.237500
0.528080 0.504680 0.238300
0.644260 0.504280 0.239300
0.763560 0.504520 0.238700
0.882380 0.504920 0.237700
1.000000 0.505000 0.237500
0.060000 0.628750 0.237500
0.177500 0.628750 0.237500
0.295000 0.628750 0.237500
0.412500 0.628750 0.237500
0.530000 0.628750 0.237500
0.647500 0.628750 0.237500
0.765000 0.628750 0.237500
0.882500 0.628750 0.237500
1.000000 0.628750 0.237500
0.060000 0.752500 0.237500
0.177500 0.752500 0.237500
0.295000 0.752500 0.237500
0.412500 0.752500 0.237500
0.530000 0.752500 0.237500
0.647500 0.752500 0.237500
0.765000 0.752500 0.237500
0.882500 0.752500 0.237500
1.000000 0.752500 0.237500
0.060000 0.876250 0.237500
0.177500 0.876250 0.237500
0.295000 0.876250 0.237500
0.412500 0.876250 0.237500
0.530000 0.876250 0.237500
0.647500 0.876250 0.237500
0.765000 0.876250 0.237500
0.882500 0.876250 0.237500
1.000000 0.876250 0.237500
0.060000 1.000000 0.237500
0.177500 1.000000 0.237500
0.295000 1.000000 0.237500
0.412500 1.000000 0.237500
0.530000 1.000000 0.237500
0.647500 1.000000 0.237500
0.765000 1.000000 0.237500
0.882500 1.000000 0.237500
1.000000 1.000000 0.237500
0.060000 0.010000 0.356250
0.177500 0.010000 0.356250
0.295000 0.010000 0.356250
0.412500 0.010000 0.356250
0.530000 0.010000 0.356250
0.647500 0.010000 0.356250
0.765000 0.010000 0.356250
0.882500 0.010000 0.356250
1.000000 0.010000 0.356250
0.060000 0.133750 0.356250
0.177500 0.133750 0.356250
0.295000 0.133750 0.356250
0.412500 0.133750 0.356250
0.530000 0.133750 0.356250
0.647500 0.133750 0.356250
0.765000 0.133750 0.356250
0.882500 0.133750 0.356250
1.000000 0.133750 0.356250
0.060000 0.257500 0.356250
0.177500 0.257500 0.356250
0.294280 0.257380 0.356550
0.411150 0.257230 0.356925
0.529280 0.257320 0.356700
0.647410 0.257470 0.356325
0.765000 0.257500 0.356250
0.882500 0.257500 0.356250
1.000000 0.257500 0.356250
0.060000 0.381250 0.356250
0.177500 0.381250 0.356250
0.295000 0.381250 0.356250
0.408900 0.380650 0.358050
0.523520 0.379900 0.360300
0.644260 0.380350 0.358950
0.764640 0.381100 0.356700
0.882500 0.381250 0.356250
1.000000 0.381250 0.356250
0.060000 0.505000 0.356250
0.177500 0.505000 0.356250
0.295000 0.505000 0.356250
0.412500 0.505000 0.356250
0.525680 0.504280 0.358950
0.640210 0.503380 0.362325
0.761760 0.503920 0.360300
0.882230 0.504820 0.356925
1.000000 0.505000 0.356250
0.060000 0.628750 0.356250
0.177500 0.628750 0.356250
0.295000 0.628750 0.356250
0.412500 0.628750 0.356250
0.530000 0.628750 0.356250
0.646060 0.628510 0.357450
0.762840 0.628210 0.358950
0.881780 0.628390 0.358050
1.000000 0.628690 0.356550
0.060000 0.752500 0.356250
0.177500 0.752500 0.356250
0.295000 0.752500 0.356250
0.412500 0.752500 0.356250
0.530000 0.752500 0.356250
0.647500 0.752500 0.356250
0.765000 0.752500 0.356250
0.882500 0.752500 0.356250
1.000000 0.752500 0.356250
0.060000 0.876250 0.356250
0.177500 0.876250 0.356250
0.295000 0.876250 0.356250
0.412500 0.876250 0.356250
0.530000 0.876250 0.356250
0.647500 0.876250 0.356250
0.765000 0.876250 0.356250
0.882500 0.876250 0.356250
1.000000 0.876250 0.356250
0.060000 1.000000 0.356250
0.177500 1.000000 0.356250
0.295000 1.000000 0.356250
0.412500 1.000000 0.356250
0.530000 1.000000 0.356250
0.647500 1.000000 0.356250
0.765000 1.000000 0.356250
0.882500 1.000000 0.356250
1.000000 1.000000 0.356250
0.060000 0.010000 0.475000
0.177500 0.010000 0.475000
0.295000 0.010000 0.475000
0.412500 0.010000 0.475000
0.530000 0.010000 0.475000
0.647500 0.010000 0.475000
0.765000 0.010000 0.475000
0.882500 0.010000 0.475000
1.000000 0.010000 0.475000
0.060000 0.133750 0.475000
0.177500 0.133750 0.475000
0.295000 0.133750 0.475000
0.412500 0.133750 0.475000
0.530000 0.133750 0.475000
0.647500 0.133750 0.475000
0.765000 0.133750 0.475000
0.882500 0.133750 0.475000
1.000000 0.133750 0.475000
0.060000 0.257500 0.475000
0.177500 0.257500 0.475000
0.295000 0.257500 0.475000
0.412500 0.257500 0.475000
0.530000 0.257500 0.475000
0.647500 0.257500 0.475000
0.765000 0.257500 0.475000
0.882500 0.257500 0.475000
1.000000 0.257500 0.475000
0.060000 0.381250 0.475000
0.177500 0.381250 0.475000
0.295000 0.381250 0.475000
0.411900 0.381150 0.475400
0.528920 0.381025 0.475900
0.646960 0.381100 0.475600
0.764940 0.381225 0.475100
0.882500 0.381250 0.475000
1.000000 0.381250 0.475000
0.060000 0.505000 0.475000
0.177500 0.505000 0.475000
0.295000 0.505000 0.475000
0.412500 0.505000 0.475000
0.527120 0.504520 0.477400
0.642640 0.503920 0.480400
0.762840 0.504280 0.478600
0.882320 0.504880 0.475600
1.000000 0.505000 0.475000
0.060000 0.628750 0.475000
0.177500 0.628750 0.475000
0.295000 0.628750 0.475000
0.412500 0.628750 0.475000
0.530000 0.628750 0.475000
0.644260 0.628210 0.478600
0.760140 0.627535 0.483100
0.880880 0.627940 0.480400
1.000000 0.628615 0.475900
0.060000 0.752500 0.475000
0.177500 0.752500 0.475000
0.295000 0.752500 0.475000
0.412500 0.752500 0.475000
0.530000 0.752500 0.475000
0.647500 0.752500 0.475000
0.764040 0.752340 0.476600
0.881420 0.752140 0.478600
1.000000 0.752260 0.477400
0.060000 0.876250 0.475000
0.177500 0.876250 0.475000
0.295000 0.876250 0.475000
0.412500 0.876250 0.475000
0.530000 0.876250 0.475000
0.647500 0.876250 0.475000
0.765000 0.876250 0.475000
0.882500 0.876250 0.475000
1.000000 0.876250 0.475000
0.060000 1.000000 0.475000
0.177500 1.000000 0.475000
0.295000 1.000000 0.475000
0.412500 1.000000 0.475000
0.530000 1.000000 0.475000
0.647500 1.000000 0.475000
0.765000 1.000000 0.475000
0.882500 1.000000 0.475000
1.000000 1.000000 0.475000
0.060000 0.010000 0.593750
0.177500 0.010000 0.593750
0.295000 0.010000 0.593750
0.412500 0.010000 0.593750
0.530000 0.010000 0.593750
0.647500 0.010000 0.593750
0.765000 0.010000 0.593750
0.882500 0.010000 0.593750
1.000000 0.010000 0.593750
0.060000 0.133750 0.593750
0.177500 0.133750 0.593750
0.295000 0.133750 0.593750
0.412500 0.133750 0.593750
0.530000 0.133750 0.593750
0.647500 0.133750 0.593750
0.765000 0.133750 0.593750
0.882500 0.133750 0.593750
1.000000 0.133750 0.593750
0.060000 0.257500 0.593750
0.177500 0.257500 0.593750
0.295000 0.257500 0.593750
0.412500 0.257500 0.593750
0.530000 0.257500 0.593750
0.647500 0.257500 0.593750
0.765000 0.257500 0.593750
0.882500 0.257500 0.593750
1.000000 0.257500 0.593750
0.060000 0.381250 0.593750
0.177500 0.381250 0.593750
0.295000 0.381250 0.593750
0.412500 0.381250 0.593750
0.530000 0.381250 0.593750
0.647500 0.381250 0.593750
0.765000 0.381250 0.593750
0.882500 0.381250 0.593750
1.000000 0.381250 0.593750
0.060000 0.505000 0.593750
0.177500 0.505000 0.593750
0.295000 0.505000 0.593750
0.412500 0.505000 0.593750
0.529520 0.504920 0.594250
0.646690 0.504820 0.594875
0.764640 0.504880 0.594500
0.882470 0.504980 0.593875
1.000000 0.505000 0.593750
0.060000 0.628750 0.593750
0.177500 0.628750 0.593750
0.295000 0.628750 0.593750
0.412500 0.628750 0.593750
0.530000 0.628750 0.593750
0.645340 0.628390 0.596750
0.761760 0.627940 0.600500
0.881420 0.628210 0.598250
1.000000 0.628660 0.594500
0.060000 0.752500 0.593750
0.177500 0.752500 0.593750
0.295000 0.752500 0.593750
0.412500 0.752500 0.593750
0.530000 0.752500 0.593750
0.647500 0.752500 0.593750
0.762840 0.752140 0.598250
0.880070 0.751690 0.603875
1.000000 0.751960 0.600500
0.060000 0.876250 0.593750
0.177500 0.876250 0.593750
0.295000 0.876250 0.593750
0.412500 0.876250 0.593750
0.530000 0.876250 0.593750
0.647500 0.876250 0.593750
0.765000 0.876250 0.593750
0.882020 0.876170 0.595750
1.000000 0.876070 0.598250
0.060000 1.000000 0.593750
0.177500 1.000000 0.593750
0.295000 1.000000 0.593750
0.412500 1.000000 0.593750
0.530000 1.000000 0.593750
0.647500 1.000000 0.593750
0.765000 1.000000 0.593750
0.882500 1.000000 0.593750
1.000000 1.000000 0.593750
0.060000 0.010000 0.712500
0.177500 0.010000 0.712500
0.295000 0.010000 0.712500
0.412500 0.010000 0.712500
0.530000 0.010000 0.712500
0.647500 0.010000 0.712500
0.765000 0.010000 0.712500
0.882500 0.010000 0.712500
1.000000 0.010000 0.712500
0.060000 0.133750 0.712500
0.177500 0.133750 0.712500
0.295000 0.133750 0.712500
0.412500 0.133750 0.712500
0.530000 0.133750 0.712500
0.647500 0.133750 0.712500
0.765000 0.133750 0.712500
0.882500 0.133750 0.712500
1.000000 0.133750 0.712500
0.060000 0.257500 0.712500
0.177500 0.257500 0.712500
0.295000 0.257500 0.712500
0.412500 0.257500 0.712500
0.530000 0.257500 0.712500
0.647500 0.257500 0.712500
0.765000 0.257500 0.712500
0.882500 0.257500 0.712500
1.000000 0.257500 0.712500
0.060000 0.381250 0.712500
0.177500 0.381250 0.712500
0.295000 0.381250 0.712500
0.412500 0.381250 0.712500
0.530000 0.381250 0.712500
0.647500 0.381250 0.712500
0.765000 0.381250 0.712500
0.882500 0.381250 0.712500
1.000000 0.381250 0.712500
0.060000 0.505000 0.712500
0.177500 0.505000 0.712500
0.295000 0.505000 0.712500
0.412500 0.505000 0.712500
0.530000 0.505000 0.712500
0.647500 0.505000 0.712500
0.765000 0.505000 0.712500
0.882500 0.505000 0.712500
1.000000 0.505000 0.712500
0.060000 0.628750 0.712500
0.177500 0.628750 0.712500
0.295000 0.628750 0.712500
0.412500 0.628750 0.712500
0.530000 0.628750 0.712500
0.647140 0.628690 0.713100
0.764460 0.628615 0.713850
0.882320 0.628660 0.713400
1.000000 0.628735 0.712650
0.060000 0.752500 0.712500
0.177500 0.752500 0.712500
0.295000 0.752500 0.712500
0.412500 0.752500 0.712500
0.530000 0.752500 0.712500
0.647500 0.752500 0.712500
0.763560 0.752260 0.716100
0.880880 0.751960 0.720600
1.000000 0.752140 0.717900
0.060000 0.876250 0.712500
0.177500 0.876250 0.712500
0.295000 0.876250 0.712500
0.412500 0.876250 0.712500
0.530000 0.876250 0.712500
0.647500 0.876250 0.712500
0.765000 0.876250 0.712500
0.881420 0.876070 0.717900
1.000000 0.875845 0.724650
0.060000 1.000000 0.712500
0.177500 1.000000 0.712500
0.295000 1.000000 0.712500
0.412500 1.000000 0.712500
0.530000 1.000000 0.712500
0.647500 1.000000 0.712500
0.765000 1.000000 0.712500
0.882500 1.000000 0.712500
1.000000 1.000000 0.714900
0.060000 0.010000 0.831250
0.177500 0.010000 0.831250
0.295000 0.010000 0.831250
0.412500 0.010000 0.831250
0.530000 0.010000 0.831250
0.647500 0.010000 0.831250
0.765000 0.010000 0.831250
0.882500 0.010000 0.831250
1.000000 0.010000 0.831250
0.060000 0.133750 0.831250
0.177500 0.133750 0.831250
0.295000 0.133750 0.831250
0.412500 0.133750 0.831250
0.530000 0.133750 0.831250
0.647500 0.133750 0.831250
0.765000 0.133750 0.831250
0.882500 0.133750 0.831250
1.000000 0.133750 0.831250
0.060000 0.257500 0.831250
0.177500 0.257500 0.831250
0.295000 0.257500 0.831250
0.412500 0.257500 0.831250
0.530000 0.257500 0.831250
0.647500 0.257500 0.831250
0.765000 0.257500 0.831250
0.882500 0.257500 0.831250
1.000000 0.257500 0.831250
0.060000 0.381250 0.831250
0.177500 0.381250 0.831250
0.295000 0.381250 0.831250
0.412500 0.381250 0.831250
0.530000 0.381250 0.831250
0.647500 0.381250 0.831250
0.765000 0.381250 0.831250
0.882500 0.381250 0.831250
1.000000 0.381250 0.831250
0.060000 0.505000 0.831250
0.177500 0.505000 0.831250
0.295000 0.505000 0.831250
0.412500 0.505000 0.831250
0.530000 0.505000 0.831250
0.647500 0.505000 0.831250
0.765000 0.505000 0.831250
0.882500 0.505000 0.831250
1.000000 0.505000 0.831250
0.060000 0.628750 0.831250
0.177500 0.628750 0.831250
0.295000 0.628750 0.831250
0.412500 0.628750 0.831250
0.530000 0.628750 0.831250
0.647500 0.628750 0.831250
0.765000 0.628750 0.831250
0.882500 0.628750 0.831250
1.000000 0.628750 0.831250
0.060000 0.752500 0.831250
0.177500 0.752500 0.831250
0.295000 0.752500 0.831250
0.412500 0.752500 0.831250
0.530000 0.752500 0.831250
0.647500 0.752500 0.831250
0.764760 0.752460 0.831950
0.882230 0.752410 0.832825
1.000000 0.752440 0.832300
0.060000 0.876250 0.831250
0.177500 0.876250 0.831250
0.295000 0.876250 0.831250
0.412500 0.876250 0.831250
0.530000 0.876250 0.831250
0.647500 0.876250 0.831250
0.765000 0.876250 0.831250
0.881780 0.876130 0.835450
1.000000 0.875980 0.840700
0.060000 1.000000 0.831250
0.177500 1.000000 0.831250
0.295000 1.000000 0.831250
0.412500 1.000000 0.831250
0.530000 1.000000 0.831250
0.647500 1.000000 0.831250
0.765000 1.000000 0.831250
0.882500 1.000000 0.831250
1.000000 1.000000 0.837550
0.060000 0.010000 0.950000
0.177500 0.010000 0.950000
0.295000 0.010000 0.950000
0.412500 0.010000 0.950000
0.530000 0.010000 0.950000
0.647500 0.010000 0.950000
0.765000 0.010000 0.950000
0.882500 0.010000 0.950000
1.000000 0.010000 0.950000
0.060000 0.133750 0.950000
0.177500 0.133750 0.950000
0.295000 0.133750 0.950000
0.412500 0.133750 0.950000
0.530000 0.133750 0.950000
0.647500 0.133750 0.950000
0.765000 0.133750 0.950000
0.882500 0.133750 0.950000
1.000000 0.133750 0.950000
0.060000 0.257500 0.950000
0.177500 0.257500 0.950000
0.295000 0.257500 0.950000
0.412500 0.257500 0.950000
0.530000 0.257500 0.950000
0.647500 0.257500 0.950000
0.765000 0.257500 0.950000
0.882500 0.257500 0.950000
1.000000 0.257500 0.950000
0.060000 0.381250 0.950000
0.177500 0.381250 0.950000
0.295000 0.381250 0.950000
0.412500 0.381250 0.950000
0.530000 0.381250 0.950000
0.647500 0.381250 0.950000
0.765000 0.381250 0.950000
0.882500 0.381250 0.950000
1.000000 0.381250 0.950000
0.060000 0.505000 0.950000
0.177500 0.505000 0.950000
0.295000 0.505000 0.950000
0.412500 0.505000 0.950000
0.530000 0.505000 0.950000
0.647500 0.505000 0.950000
0.765000 0.505000 0.950000
0.882500 0.505000 0.950000
1.000000 0.505000 0.950000
0.060000 0.628750 0.950000
0.177500 0.628750 0.950000
0.295000 0.628750 0.950000
0.412500 0.628750 0.950000
0.530000 0.628750 0.950000
0.647500 0.628750 0.950000
0.765000 0.628750 0.950000
0.882500 0.628750 0.950000
1.000000 0.628750 0.950000
0.060000 0.752500 0.950000
0.177500 0.752500 0.950000
0.295000 0.752500 0.950000
0.412500 0.752500 0.950000
0.530000 0.752500 0.950000
0.647500 0.752500 0.950000
0.765000 0.752500 0.950000
0.882500 0.752500 0.950000
1.000000 0.752500 0.950000
0.060000 0.876250 0.950000
0.177500 0.876250 0.950000
0.295000 0.876250 0.950000
0.412500 0.876250 0.950000
0.530000 0.876250 0.950000
0.647500 0.876250 0.950000
0.765000 0.876250 0.950000
0.882380 0.876230 0.950800
1.000000 0.876205 0.951800
0.060000 1.000000 0.950000
0.177500 1.000000 0.950000
0.295000 1.000000 0.950000
0.412500 1.000000 0.950000
0.530000 1.000000 0.950000
0.647500 1.000000 0.950000
0.765000 1.000000 0.950000
0.882500 1.000000 0.950000
1.000000 1.000000 0.954800
